!!!!SEGMENT: pl-wtm--r-141-m_moniuszko-stanislaw--paria-hymn-do-boga.krn
!!!cenid: 18xx:2990
!!!COM: Moniuszko, Stanisław
!!!COM-rismid: pe30008351
!!!CDT: 1819/05/05-1872/06/04
!!!CNT: Polish
!!!GTL: Paria
!!!OTL: Hymn do Boga
!!!PDT:
!!!AGN: Secular
!!!SMS-siglum: PL-Wtm
!!!SMS-shelfmark: R 141/M
!!!SMS-shelfwork: G
!!!SMS-variant:
!!!SMS-altvar:
!!!NIFC-rismid: 1001090834
!!!URL-scan: http://repozytorium.nifc.pl/skany/pl-wtm-nut--r138-141m
!!!ONB-nifc: UWAGA: od skanu 0038. Na 0045 szkic innego utworu
**kern	**kern	**dynam	**kern	**text	**dynam	**kern	**text	**dynam
*part2	*part2	*part2	*part1	*part1	*part1	*part1	*part1	*part1
*staff4	*staff3	*	*staff2	*staff2	*	*staff1	*staff1	*
*Ipiano	*Ipiano	*	*Iempty	*	*	*Itenor	*	*
*I"[Piano]	*I"[Piano]	*	*I"[Bass]	*	*	*I"Tenori.	*	*
*clefF4	*clefG2	*	*clefF4	*	*	*clefG2	*	*
*k[f#c#g#]	*k[f#c#g#]	*	*k[f#c#g#]	*	*	*k[f#c#g#]	*	*
*D:	*D:	*	*D:	*	*	*D:	*	*
*M4/4	*M4/4	*	*M4/4	*	*	*M4/4	*	*
*met(c)	*met(c)	*	*met(c)	*	*	*met(c)	*	*
=1	=1	=1	=1	=1	=1	=1	=1	=1
*2\right	*2\right	*	*2\right	*	*	*2\right	*	*
!	!LO:ART:color=blue	!LO:DY:b:rj	!	!	!	!LO:TX:t=P:problem:kolejność znaków f# cc# g#	!	!
!	!	!	!	!	!	!LO:TX:a:t=P:problem:all\right:global	!	!
!	!LO:TX:t=P:problem:kolejność znaków f# cc# g#	!	!LO:TX:a:t=Moderato:color=blue	!	!	!	!	!
1FF#	1f# 1c#< 1A<^^>	f	1r	.	.	1r	.	.
=2	=2	=2	=2	=2	=2	=2	=2	=2
!	!LO:ART:color=blue	!	!	!	!	!	!	!
1BB#X 1BBB#X	1a 1f# 1d#X 1A^^>	.	1r	.	.	1r	.	.
=3	=3	=3	=3	=3	=3	=3	=3	=3
!	!LO:ART:color=blue	!	!	!	!	!	!	!
2C# 2CC#/	2f# 2c# 2A^^>/	.	1r	.	.	1r	.	.
4AA/	4c# 4A/	.	.	.	.	.	.	.
4FF#/	4f# 4c# 4A/	.	.	.	.	.	.	.
=4	=4	=4	=4	=4	=4	=4	=4	=4
!	!LO:ART:color=blue	!	!	!	!	!	!	!
1D 1DD	1a 1f# 1d 1A^^>	.	1r	.	.	1r	.	.
=5	=5	=5	=5	=5	=5	=5	=5	=5
!	!LO:ART:color=blue	!	!	!	!	!	!	!
2AA/	2a 2e 2c#^^>/	.	1r	.	.	1r	.	.
4EE/	4g# 4e 4B/	.	.	.	.	.	.	.
4FF#/	4f# 4c# 4A/	.	.	.	.	.	.	.
=6	=6	=6	=6	=6	=6	=6	=6	=6
*	*^	*	*	*	*	*	*	*
*	*	*^	*	*	*	*	*	*	*
4BB 4BBB/	2f#/	4d#X\	2A\	.	1r	.	.	1r	.	.
4BB#X 4BBB#X/	.	4dn\	.	.	.	.	.	.	.	.
2C# 2CC#/	2e#X/	4c#\	2G#\	.	.	.	.	.	.	.
.	.	4B\	.	.	.	.	.	.	.	.
*	*v	*v	*v	*	*	*	*	*	*	*
=7	=7	=7	=7	=7	=7	=7	=7	=7
*	*	*	*2\right	*	*	*2\right	*	*
*tremolo	*tremolo	*	*	*	*	*8ba	*	*
!	!	!	!	!	!	!LO:TX:t=P:problem:partia tenorów zapisana w kluczu wiolinowym	!	!LO:DY:b:rj:color=blue
!	!	!	!	!	!LO:HP:a	!LO:TX:i:a:t=Tenori.:rj	!	!LO:HP:a
32C#LLL 32FF#/	32f#LLL 32A^</	.	2F#\	.	>	2F#/	Trwo-	p >
32C# 32FF#/	32f# 32A/	.	.	.	.	.	.	.
32C# 32FF#/	32f# 32A/	.	.	.	.	.	.	.
32C# 32FF#/	32f# 32A/	.	.	.	.	.	.	.
32C# 32FF#/	32f# 32A/	.	.	.	.	.	.	.
32C# 32FF#/	32f# 32A/	.	.	.	.	.	.	.
32C# 32FF#/	32f# 32A/	.	.	.	.	.	.	.
32C# 32FF#/	32f# 32A/	.	.	.	.	.	.	.
32C# 32FF#/	32f# 32A/	.	.	.	.	.	.	.
32C# 32FF#/	32f# 32A/	.	.	.	.	.	.	.
32C# 32FF#/	32f# 32A/	.	.	.	.	.	.	.
32C# 32FF#/	32f# 32A/	.	.	.	.	.	.	.
32C# 32FF#/	32f# 32A/	.	.	.	.	.	.	.
32C# 32FF#/	32f# 32A/	.	.	.	.	.	.	.
32C# 32FF#/	32f# 32A/	.	.	.	.	.	.	.
32C# 32FF#/	32f#JJJ 32A/	.	.	.	.	.	.	.
32C# 32FF#/	32e#XLLL 32A/	.	4E#X\	.	]	4E#X/	-ga!	]
32C# 32FF#/	32e# 32A/	.	.	.	.	.	.	.
32C# 32FF#/	32e# 32A/	.	.	.	.	.	.	.
32C# 32FF#/	32e# 32A/	.	.	.	.	.	.	.
32C# 32FF#/	32e# 32A/	.	.	.	.	.	.	.
32C# 32FF#/	32e# 32A/	.	.	.	.	.	.	.
32C# 32FF#/	32e# 32A/	.	.	.	.	.	.	.
32C# 32FF#/	32e# 32A/	.	.	.	.	.	.	.
32C# 32FF#/	32e# 32A/	.	4r	.	.	4r	.	.
32C# 32FF#/	32e# 32A/	.	.	.	.	.	.	.
32C# 32FF#/	32e# 32A/	.	.	.	.	.	.	.
32C# 32FF#/	32e# 32A/	.	.	.	.	.	.	.
32C# 32FF#/	32e# 32A/	.	.	.	.	.	.	.
32C# 32FF#/	32e# 32A/	.	.	.	.	.	.	.
32C# 32FF#/	32e# 32A/	.	.	.	.	.	.	.
32C#JJJ 32FF#/	32e#JJJ 32A/	.	.	.	.	.	.	.
=8	=8	=8	=8	=8	=8	=8	=8	=8
!	!	!	!	!	!	!	!	!LO:HP:a
32C#LLL 32FF#/	32enLLL 32A^</	.	2En\	.	.	2En/	trwo-	>
32C# 32FF#/	32e 32A/	.	.	.	.	.	.	.
32C# 32FF#/	32e 32A/	.	.	.	.	.	.	.
32C# 32FF#/	32e 32A/	.	.	.	.	.	.	.
32C# 32FF#/	32e 32A/	.	.	.	.	.	.	.
32C# 32FF#/	32e 32A/	.	.	.	.	.	.	.
32C# 32FF#/	32e 32A/	.	.	.	.	.	.	.
32C# 32FF#/	32e 32A/	.	.	.	.	.	.	.
32C# 32FF#/	32e 32A/	.	.	.	.	.	.	.
32C# 32FF#/	32e 32A/	.	.	.	.	.	.	.
32C# 32FF#/	32e 32A/	.	.	.	.	.	.	.
32C# 32FF#/	32e 32A/	.	.	.	.	.	.	.
32C# 32FF#/	32e 32A/	.	.	.	.	.	.	.
32C# 32FF#/	32e 32A/	.	.	.	.	.	.	.
32C# 32FF#/	32e 32A/	.	.	.	.	.	.	.
32C# 32FF#/	32eJJJ 32A/	.	.	.	.	.	.	.
32C# 32FF#/	32d#XLLL 32A/	.	4D#X\	.	.	4D#X/	-ga	]
32C# 32FF#/	32d# 32A/	.	.	.	.	.	.	.
32C# 32FF#/	32d# 32A/	.	.	.	.	.	.	.
32C# 32FF#/	32d# 32A/	.	.	.	.	.	.	.
32C# 32FF#/	32d# 32A/	.	.	.	.	.	.	.
32C# 32FF#/	32d# 32A/	.	.	.	.	.	.	.
32C# 32FF#/	32d# 32A/	.	.	.	.	.	.	.
32C# 32FF#/	32d# 32A/	.	.	.	.	.	.	.
32C# 32FF#/	32d# 32A/	.	4r	.	.	4r	.	.
32C# 32FF#/	32d# 32A/	.	.	.	.	.	.	.
32C# 32FF#/	32d# 32A/	.	.	.	.	.	.	.
32C# 32FF#/	32d# 32A/	.	.	.	.	.	.	.
32C# 32FF#/	32d# 32A/	.	.	.	.	.	.	.
32C# 32FF#/	32d# 32A/	.	.	.	.	.	.	.
32C# 32FF#/	32d# 32A/	.	.	.	.	.	.	.
32C#JJJ 32FF#/	32d#JJJ 32A/	.	.	.	.	.	.	.
!!LO:LB:g=original
=9	=9	=9	=9	=9	=9	=9	=9	=9
32FF#/LLL	4d 4A/	.	4Dn\	.	.	4Dn/	z cie-	.
32D/	.	.	.	.	.	.	.	.
32FF#/	.	.	.	.	.	.	.	.
32D/	.	.	.	.	.	.	.	.
32FF#/	.	.	.	.	.	.	.	.
32D/	.	.	.	.	.	.	.	.
32FF#/	.	.	.	.	.	.	.	.
32D/	.	.	.	.	.	.	.	.
32FF#/	8.dL 8.A/	.	8.D\	.	.	8.D/	-niow	.
32D/	.	.	.	.	.	.	.	.
32FF#/	.	.	.	.	.	.	.	.
32D/	.	.	.	.	.	.	.	.
32FF#/	.	.	.	.	.	.	.	.
32D/	.	.	.	.	.	.	.	.
32FF#/	16dJk 16A/	.	16D\	.	.	16D/	wy-	.
32D/JJJ	.	.	.	.	.	.	.	.
*rep	*	*	*	*	*	*	*	*
32FF#/LLL	4f# 4d 4A/	.	4F#\	.	.	4F#/	-cho-	.
32D/	.	.	.	.	.	.	.	.
32FF#/	.	.	.	.	.	.	.	.
32D/	.	.	.	.	.	.	.	.
32FF#/	.	.	.	.	.	.	.	.
32D/	.	.	.	.	.	.	.	.
32FF#/	.	.	.	.	.	.	.	.
32D/	.	.	.	.	.	.	.	.
32FF#/	4f# 4d 4A/	.	4F#\	.	.	4F#/	-dzi	.
32D/	.	.	.	.	.	.	.	.
32FF#/	.	.	.	.	.	.	.	.
32D/	.	.	.	.	.	.	.	.
32FF#/	.	.	.	.	.	.	.	.
32D/	.	.	.	.	.	.	.	.
32FF#/	.	.	.	.	.	.	.	.
32D/JJJ	.	.	.	.	.	.	.	.
*Xrep	*	*	*	*	*	*	*	*
=10	=10	=10	=10	=10	=10	=10	=10	=10
32FF#/LLL	2a 2c# 2A/	.	2F#\	.	.	2A/	bla-	.
32C#/	.	.	.	.	.	.	.	.
32FF#/	.	.	.	.	.	.	.	.
32C#/	.	.	.	.	.	.	.	.
32FF#/	.	.	.	.	.	.	.	.
32C#/	.	.	.	.	.	.	.	.
32FF#/	.	.	.	.	.	.	.	.
32C#/	.	.	.	.	.	.	.	.
32FF#/	.	.	.	.	.	.	.	.
32C#/	.	.	.	.	.	.	.	.
32FF#/	.	.	.	.	.	.	.	.
32C#/	.	.	.	.	.	.	.	.
32FF#/	.	.	.	.	.	.	.	.
32C#/	.	.	.	.	.	.	.	.
32FF#/	.	.	.	.	.	.	.	.
32C#/JJJ	.	.	.	.	.	.	.	.
*rep	*	*	*	*	*	*	*	*
32FF#/LLL	4f# 4c# 4A/	.	4F#\	.	.	4F#/	-da,	.
32C#/	.	.	.	.	.	.	.	.
32FF#/	.	.	.	.	.	.	.	.
32C#/	.	.	.	.	.	.	.	.
32FF#/	.	.	.	.	.	.	.	.
32C#/	.	.	.	.	.	.	.	.
32FF#/	.	.	.	.	.	.	.	.
32C#/	.	.	.	.	.	.	.	.
32FF#/	8.r	.	4r	.	.	4r	.	.
32C#/	.	.	.	.	.	.	.	.
32FF#/	.	.	.	.	.	.	.	.
32C#/	.	.	.	.	.	.	.	.
32FF#/	.	.	.	.	.	.	.	.
32C#/	.	.	.	.	.	.	.	.
32FF#/	16a 16f# 16A/	.	.	.	.	.	.	.
32C#/JJJ	.	.	.	.	.	.	.	.
*Xrep	*	*	*	*	*	*	*	*
=11	=11	=11	=11	=11	=11	=11	=11	=11
*^	*	*	*	*	*	*	*	*
!	!	!	!	!	!	!LO:DY:a:color=blue:rj	!	!	!LO:DY:a:color=blue:rj
8.D/L	1DD	4..a 4..f# 4..A/	.	4F#\	.	f	4A/	Bo-	f
!	!	!	!LO:HP:b	!	!	!	!	!	!
16D/K	.	.	<	.	.	.	.	.	.
!	!	!	!	!	!	!LO:HP:a	!	!	!LO:HP:a
8.D/	.	.	.	8.D\	.	<	8.F#/	-ga	<
16D/Jk	.	16f# 16d/	.	16D\	.	.	16F#/	grom	.
8.D/L	.	8.g#L 8.e/	.	8.E\	.	.	8.G#/	strasz-	.
16D/K	.	16aK 16f#/	.	16F#\	.	.	16A/	-ny	.
8.D/	.	8.b 8.g#/	.	8.G#\	.	[	8.B\	za-	[
16D/Jk	.	16cc#Jk 16e/	[	16E\	.	.	16c# 16A\	-po-	.
*v	*v	*	*	*	*	*	*	*	*
=12	=12	=12	=12	=12	=12	=12	=12	=12
!LO:TX:b:t=65:color=blue	!	!	!	!	!LO:DY:a:rj	!	!	!LO:DY:a:rj
!	!	!LO:DY:b:rj	!	!	!LO:HP:a	!	!	!LO:HP:a
8D 8DD/	8.ddL 8.f#/	f	2F#\	.	f >	2d 2A\	-wia-	f >
16r	.	.	.	.	.	.	.	.
16AKL 16F# 16D\	16f#Jk 16d/	.	.	.	.	.	.	.
8.A 8.F# 8.D\	8.f#L 8.d/	.	.	.	.	.	.	.
16DJk 16DD\	16ddJk 16d/	.	.	.	.	.	.	.
8GG#/	8.bL 8.g# 8.d/	.	4G#\	.	]	4B\	-da,	]
16r	.	.	.	.	.	.	.	.
!	!LO:TX:a:t=P:problem:brak główek	!	!	!	!	!	!	!
16BKL 16G# 16D\	16bK 16g# 16d/	.	.	.	.	.	.	.
!	!LO:TX:a:t=P:problem:brak główek	!	!	!	!	!	!	!
8.BJ 8.G# 8.D\	8.b 8.g# 8.d/	.	4r	.	.	4r	.	.
!LO:N:vis=8	!LO:TX:a:t=P:problem:brak główek	!	!	!	!	!	!	!
16BB 16BBB/	16bJk 16g# 16d/	.	.	.	.	.	.	.
=13	=13	=13	=13	=13	=13	=13	=13	=13
*^	*	*	*	*	*	*	*	*
8.C#/L	1CC#	4cc# 4a 4f# 4c#/	.	4C#/	.	.	4c#\	świę-	.
16C#/K	.	.	.	.	.	.	.	.	.
!	!	!LO:TX:a:t=P:problem:brak główek	!	!	!	!	!	!	!
8.C#/	.	8.cc#L 8.a 8.f# 8.c#/	.	8.C#/	.	.	8.c#\	-te	.
!	!	!LO:TX:a:t=P:problem:brak główek	!	!	!	!	!	!	!
16C#/Jk	.	16cc#Jk 16a 16f# 16c#/	.	16C#/	.	.	16c#\	po-	.
8.C#/L	.	4cc# 4g# 4f# 4c#/	.	4.C#^</	.	.	4.c#^>\	-sa-	.
16C#/K	.	.	.	.	.	.	.	.	.
8.C#/	.	4cc# 4g# 4e#X 4c#/	.	.	.	.	.	.	.
.	.	.	.	8C#/	.	.	8c#\	-dy	.
16C#/Jk	.	.	.	.	.	.	.	.	.
!!LO:LB:g=original
=14	=14	=14	=14	=14	=14	=14	=14	=14	=14
8.F#/L	2.FF#\	8.f#L 8.c# 8.A/	.	2F#\	.	.	2F#/	drżą	.
16F#/K	.	16f#K 16c# 16A/	.	.	.	.	.	.	.
!	!	!	!LO:HP:b=2	!	!	!	!	!	!
8.F#/	.	8.f# 8.c# 8.A/	>	.	.	.	.	.	.
16F#/Jk	.	16f#Jk 16c# 16A/	.	.	.	.	.	.	.
8.F#/L	.	8.aL 8.f# 8.c#/	.	2r	.	.	2r	.	.
!	!	!LO:TX:a:t=P:problem:brak główek	!	!	!	!	!	!	!
16F#/K	.	16aK 16f# 16c#/	.	.	.	.	.	.	.
!	!	!LO:TX:a:t=P:problem:brak główek	!	!	!	!	!	!	!
8F#/J	4ryy	8.a 8.f# 8.c#/	]	.	.	.	.	.	.
16r	.	.	.	.	.	.	.	.	.
16A 16AA/	.	16cc#Jk 16a 16c#/	.	.	.	.	.	.	.
*v	*v	*	*	*	*	*	*	*	*
=15	=15	=15	=15	=15	=15	=15	=15	=15
!	!	!	!	!	!LO:DY:a:rj	!	!	!LO:DY:a:rj
8A 8AA/	8.cc#L 8.e 8.c#/	.	4A\	.	p	4c#\	Zię-	p
8r	.	.	.	.	.	.	.	.
.	16eK 16c#/	.	.	.	.	.	.	.
8E/	8.b 8.e 8.c#/	.	8.E\	.	.	8.B\	-bi	.
8r	.	.	.	.	.	.	.	.
.	16aJk 16e 16c#/	.	16A\	.	.	16A/	duch	.
8C#/	8.aL 8.e 8.c#/	.	8.A\	.	.	8.A/	gro-	.
8r	.	.	.	.	.	.	.	.
.	16g#K 16e 16c#/	.	16G#X\	.	.	16G#X/	-by	.
8AA/	8.a 8.e 8.c#/	.	8.A\	.	.	8.A/	ludz-	.
8r	.	.	.	.	.	.	.	.
.	16bJk 16e 16c#/	.	16B\	.	.	16B/	-kie	.
=16	=16	=16	=16	=16	=16	=16	=16	=16
8BB/	8.aL 8.d/	.	2A\	.	.	2A/	ple-	.
8r	.	.	.	.	.	.	.	.
.	16d/K	.	.	.	.	.	.	.
8D\	8.d/	.	.	.	.	.	.	.
8r	.	.	.	.	.	.	.	.
.	16d/Jk	.	.	.	.	.	.	.
8G#\	8.aL 8.d/	.	4Gn\	.	.	4Gn/	-mie,	.
8r	.	.	.	.	.	.	.	.
.	16d/K	.	.	.	.	.	.	.
8B\	8.g#/	.	4r	.	.	4r	.	.
8r	.	.	.	.	.	.	.	.
.	16eeJk 16g# 16e/	.	.	.	.	.	.	.
=17	=17	=17	=17	=17	=17	=17	=17	=17
!	!	!	!	!	!LO:DY:a:t=piu f:rj	!LO:ACC:color=blue	!	!LO:DY:a:t=piu f:rj
8B 8C#\	8.eeL 8.b 8.g# 8.e/	.	4E\	.	f	4e 4Gn/	z głę-	f
8r	.	.	.	.	.	.	.	.
.	16g#K 16e/	.	.	.	.	.	.	.
8G#\	8.dd 8.b 8.g# 8.e/	.	8.E\	.	.	8.d 8.G/	-bi	.
8r	.	.	.	.	.	.	.	.
.	16cc#Jk 16g# 16e/	.	16E\	.	.	16c# 16G/	wstrzą-	.
8F#\	8.bL 8.f# 8.e/	.	8.F#\	.	.	8.B\	-sa-	.
8r	.	.	.	.	.	.	.	.
.	16a#XK 16f# 16e/	.	16F#\	.	.	16A#X\	-ją	.
8F# 8FF#\	8.b 8.g#X 8.e/	.	8.F#\	.	.	8.B 8.G#\	og-	.
8r	.	.	.	.	.	.	.	.
.	16cc#Jk 16a# 16e/	.	16F#\	.	.	16c# 16A#\	-nia	.
=18	=18	=18	=18	=18	=18	=18	=18	=18
*	*	*	*	*	*	*^	*	*
*	*	*	*^	*	*	*	*	*	*
8B 8BB\	8.ddL 8.f# 8.d/	.	2B\	2.ryy	.	.	2d 2B\	2ryy	zie-	.
8r	.	.	.	.	.	.	.	.	.	.
.	16f#K 16d/	.	.	.	.	.	.	.	.	.
8F#\	8.f# 8.d/	.	.	.	.	.	.	.	.	.
8r	.	.	.	.	.	.	.	.	.	.
.	16ddJk 16f# 16d/	.	.	.	.	.	.	.	.	.
8D/	8.bL 8.f# 8.d/	.	8BB/	.	.	.	8B/	8B\	-mię	.
8r	.	.	8r	.	.	.	8rc	8ryy	.	.
.	16ddK 16b 16d/	.	.	.	.	.	.	.	.	.
8BB/	8.dd 8.b 8.d/	.	4B/	4B\	.	.	4d/	4B\	a	.
8r	.	.	.	.	.	.	.	.	.	.
.	16ddJk 16b 16d/	.	.	.	.	.	.	.	.	.
*	*	*	*v	*v	*	*	*	*	*	*
*	*	*	*	*	*	*v	*v	*	*
!!LO:PB:g=original
=19	=19	=19	=19	=19	=19	=19	=19	=19
!	!	!LO:DY:b:rj	!	!	!LO:DY:a:rj	!	!	!LO:DY:a:rj
8.GnL 8.GGn\	8.ddL 8.b 8.d/	p	4.Gn\	.	p	4.d 4.B\	rze-	p
16BK 16G\	16d/K	.	.	.	.	.	.	.
8.B 8.G\	8.d/	.	.	.	.	.	.	.
.	.	.	8D\	.	.	8B 8Gn/	-ki	.
16G\Jk	16bJk 16gn 16d/	.	.	.	.	.	.	.
8.AL 8.AA\	4a 4e 4c#/	.	4C#\	.	.	4A 4E/	pły-	.
16AA\K	.	.	.	.	.	.	.	.
8.BB\	4f# 4d 4B/	.	4D\	.	.	4F#/	-ną	.
16BB\Jk	.	.	.	.	.	.	.	.
!	!	!	!	!	!	!LO:TX:a:t=x	!	!
=20	=20	=20	=20	=20	=20	=20	=20	=20
*^	*	*	*	*	*	*	*	*
8.F#/L	2FF#\	8.aL 8.f# 8.c# 8.A/	.	2C#/	.	.	2.A 2.F#/	krwią	.
16F#/K	.	16c#K 16A/	.	.	.	.	.	.	.
8.F#/	.	8.c# 8.A/	.	.	.	.	.	.	.
!	!	!LO:TX:B:a:t=20:color=red	!	!	!	!	!	!	!
16F#/Jk	.	16aJk 16f# 16c#/	.	.	.	.	.	.	.
2BB#X 2BBB#X\	2ryy	8.aL 8.f# 8.d#X/	.	2BB#X/	.	.	.	.	.
!	!	!LO:TX:b:t=P:problem:krzyżyk w czerwonym kółku	!	!	!	!	!	!	!
.	.	16AK 16F#X</	.	.	.	.	.	.	.
.	.	8.A 8.F#</	.	.	.	.	4A 4F#/	a	.
.	.	16f#Jk 16A 16F#</	.	.	.	.	.	.	.
*v	*v	*	*	*	*	*	*	*	*
=21	=21	=21	=21	=21	=21	=21	=21	=21
4.C# 4.CC#\	8.c#L 8.A 8.F#</	.	4.C#/	.	.	4.c#\	rze-	.
.	16c#Jk 16A 16F#</	.	.	.	.	.	.	.
*	*rep	*	*	*	*	*	*	*
.	8.c#L 8.A 8.F#</	.	.	.	.	.	.	.
8C# 8CC#\	.	.	8C#/	.	.	8c#\	-ki	.
.	16c#Jk 16A 16F#</	.	.	.	.	.	.	.
*	*Xrep	*	*	*	*	*	*	*
4C# 4CC#\	8.c#L 8.B 8.F#</	.	4.C#/	.	.	4.c#\	pły-	.
!	!LO:TX:a:t=P:problem:brak główek	!	!	!	!	!	!	!
.	16c#Jk 16B 16F#</	.	.	.	.	.	.	.
4C# 4CC#\	8.c#L 8.B 8.G#< 8.E#X</	.	.	.	.	.	.	.
.	.	.	8C#/	.	.	8c#\	-ną	.
!	!LO:TX:a:t=P:problem:brak główek	!	!	!	!	!	!	!
.	16c#Jk 16B 16G#< 16E#</	.	.	.	.	.	.	.
=22	=22	=22	=22	=22	=22	=22	=22	=22
8.C#L 8.AA 8.FF#\	8.F#</L	.	4F#/	.	.	4F#/	krwią.	.
16F#\Jk	16f#/Jk	.	.	.	.	.	.	.
!	!	!LO:HP:b	!	!	!	!	!	!
8.F#\L	8.f#/L	<	4r	.	.	4r	.	.
16F#\Jk	16f#/Jk	.	.	.	.	.	.	.
!	!	!	!	!	!LO:DY:a:rj	!	!	!LO:DY:a:rj
8.F#\L	8.f#/L	.	4r	.	f	4r	.	f
16F#\Jk	16f#/Jk	.	.	.	.	.	.	.
8.F#\L	8.f#/L	[	8.r	.	.	8.r	.	.
!	!	!LO:DY:b	!	!	!	!	!	!
16F#\Jk 16BB\ 16FF#\	16ff#Jk 16cc# 16a 16f#/	ff	16F#\	.	f	16f# 16c#\	Z czu-	.
!	!	!	!	!	!	!LO:TX:a:t=x	!	!
=23	=23	=23	=23	=23	=23	=23	=23	=23
*^	*^	*	*	*	*	*	*	*
!	!	!LO:TX:B:b:t=G=:color=red	!	!	!	!	!	!	!	!
8.F#/L	4..D 4..BB\	4..ff# 4..dd^^>/	8.b 8.f#\L	.	4..B\	.	.	4..f# 4..d\	-ło-	.
16F#/K	.	.	16f#\K	.	.	.	.	.	.	.
8.F#/	.	.	8.f#\	.	.	.	.	.	.	.
16F#/Jk	16C# 16FF#\	16ff# 16cc# 16a/	16f#\Jk	.	16F#\	.	.	16f# 16c#\	-ścią	.
8.F#/L	4..D 4..BB\	4..ff# 4..dd 4..b^^>/	8.f#\L	.	4..B\	.	.	4..f# 4..d\	wsze-	.
16F#/K	.	.	16f#\K	.	.	.	.	.	.	.
8.F#/	.	.	8.f#\	.	.	.	.	.	.	.
16F#/Jk	16C# 16FF#\	16ff# 16cc# 16a/	16f#\Jk	.	16F#\	.	.	16f# 16c#\	-lką	.
*v	*v	*	*	*	*	*	*	*	*	*
!!LO:LB:g=original
=24	=24	=24	=24	=24	=24	=24	=24	=24	=24
8.F#/L	[>2.ff# [>2.dd [>2.b/	8.f#\L	.	4B\	.	.	4f# 4d\	precz!	.
16F#/K	.	16f#\K	.	.	.	.	.	.	.
8.F#/	.	8.f#\	.	4r	.	.	4r	.	.
16F#/Jk	.	16f#\Jk	.	.	.	.	.	.	.
8.F#/L	.	8.f#\L	.	4r	.	.	4r	.	.
!	!	!LO:N:vis=8	!	!	!	!	!	!	!
16F#/K	.	16f#\K	.	.	.	.	.	.	.
8.F#/	8ff#] 8dd] 8b/]	8f#\	.	8.r	.	.	8.r	.	.
.	8ryy	16r	.	.	.	.	.	.	.
!	!	!LO:N:vis=8	!	!	!	!	!	!	!
16F#/Jk	.	16aaJk 16ff# 16cc# 16a\	.	16A\	.	.	16f# 16c#\	pod	.
=25	=25	=25	=25	=25	=25	=25	=25	=25	=25
!LO:TX:b:t=73:color=grey	!	!	!	!	!	!	!	!	!
8.F#/L	4..aa 4..ff# 4..dd/	8.a\L	.	4..d\	.	.	4..f# 4..d\	ko-	.
16F#/K	.	16a\Jk	.	.	.	.	.	.	.
8.F#/	.	8.a\L	.	.	.	.	.	.	.
16F#/Jk	16aa 16ff# 16cc#/	16a\Jk	.	16A\	.	.	16f# 16c#\	-ła	.
8.F#/L	4..aa 4..ff# 4..dd/	8.a\L	.	4..d\	.	.	4..f# 4..d\	cia-	.
16F#/K	.	16a\K	.	.	.	.	.	.	.
8.F#/	.	8.a\	.	.	.	.	.	.	.
16F#/Jk	16aa 16ff# 16cc#/	16a\Jk	.	16A\	.	.	16f# 16c#\	-ło	.
!	!	!	!	!	!	!	!LO:TX:a:t=x	!	!
*	*v	*v	*	*	*	*	*	*	*
=26	=26	=26	=26	=26	=26	=26	=26	=26
8.F#L 8.D\	8.aaL 8.ff# 8.dd 8.a/	.	2d^>\	.	.	2a 2f#^>\	wlecz,	.
16AJk 16F# 16D\	16ff#Jk 16dd 16a/	.	.	.	.	.	.	.
!	!LO:TX:a:t=P:problem:brak główek	!	!	!	!	!	!	!
8.AL 8.F# 8.D\	8.ff#L 8.dd 8.a/	.	.	.	.	.	.	.
16AJk 16F# 16D\	16ddJk 16a 16f#/	.	.	.	.	.	.	.
*rep	*	*	*	*	*	*	*	*
!	!LO:TX:a:t=P:problem:brak główek	!	!	!	!	!	!	!
8.AL 8.F# 8.D\	8.ddL 8.a 8.f#/	.	2r	.	.	2r	.	.
16AJk 16F# 16D\	16aJk 16f# 16d/	.	.	.	.	.	.	.
*Xrep	*	*	*	*	*	*	*	*
!	!LO:TX:a:t=P:problem:brak główek	!	!	!	!	!	!	!
8.AL 8.F# 8.D\	8.aL 8.f# 8.d/	.	.	.	.	.	.	.
16GnJk 16GGn\	16bJk 16g# 16d/	.	.	.	.	.	.	.
=27	=27	=27	=27	=27	=27	=27	=27	=27
*	*	*	*^	*	*	*	*	*
!	!LO:SIC:v:s=gn	!	!	!	!	!	!	!	!
!	!LO:TX:B:b:t=C=:color=red	!	!	!	!	!	!	!	!
8Gn 8GGn/	8.bL 8.g# 8.d/	.	4B\	2.ryy	.	.	4B/	w ser-	.
8r	.	.	.	.	.	.	.	.	.
.	16d/Jk	.	.	.	.	.	.	.	.
!	!LO:SIC:v:s=gn	!	!LO:ACC:color=blue	!	!	!	!	!	!
8D/	8.g#L 8.d 8.B/	.	8.Gn\	.	.	.	8.Gn/	-cu	.
8r	.	.	.	.	.	.	.	.	.
!	!LO:SIC:v:s=gn	!	!	!	!	!	!	!	!
!	!LO:TX:a:t=P:problem:brak główek	!	!	!	!	!	!	!	!
.	16g#Jk 16d 16B/	.	16G\	.	.	.	16G/	ton	.
!	!LO:SIC:v:s=gn	!	!	!	!	!	!	!	!
8BB/	8.bL 8.g# 8.d/	.	4B\	.	.	.	4B\	o-	.
8r	.	.	.	.	.	.	.	.	.
.	16d/Jk	.	.	.	.	.	.	.	.
!	!LO:SIC:v:s=gn	!	!	!	!	!	!	!	!
8GG/	8.ddL 8.b 8.g#/	.	4G/	4G\	.	.	4d 4B\	-stry	.
8r	.	.	.	.	.	.	.	.	.
.	16d/Jk	.	.	.	.	.	.	.	.
*	*	*	*v	*v	*	*	*	*	*
=28	=28	=28	=28	=28	=28	=28	=28	=28
*	*	*	*	*	*	*^	*	*
!LO:TX:b:t=67:color=blue	!	!	!	!	!	!	!	!	!
8D\	8.ddL 8.a 8.f#/	.	2.F#^> 2.D\	.	.	2.d 2.A^>\	2ryy	miecz	.
8r	.	.	.	.	.	.	.	.	.
.	16dJk 16A< 16F#</	.	.	.	.	.	.	.	.
8AA\	8.dL 8.A< 8.F#</	.	.	.	.	.	.	.	.
8r	.	.	.	.	.	.	.	.	.
.	16f#Jk 16d 16A</	.	.	.	.	.	.	.	.
8F# 8FF#\	8.f#L 8.d 8.A</	.	.	.	.	.	4ryy	.	.
8r	.	.	.	.	.	.	.	.	.
.	16aJk 16d 16A</	.	.	.	.	.	.	.	.
8D 8DD/	8.aL 8.f# 8.d/	.	4F# 4D\	.	.	4A/	4A\	przed	.
8r	.	.	.	.	.	.	.	.	.
.	16aJk 16f# 16d/	.	.	.	.	.	.	.	.
*	*	*	*	*	*	*v	*v	*	*
!!LO:LB:g=original
=29	=29	=29	=29	=29	=29	=29	=29	=29
8Gn 8GGn\	8.bL 8.gn 8.d/	.	4Gn\	.	.	4B\	to-	.
8r	.	.	.	.	.	.	.	.
.	16dJk 16B/	.	.	.	.	.	.	.
8D\	8.gL 8.d 8.B/	.	8.G\	.	.	8.Gn/	-bą	.
8r	.	.	.	.	.	.	.	.
.	16gJk 16d 16B/	.	16G\	.	.	16G/	tor	.
8B 8BB\	8.bL 8.g 8.d/	.	4G\	.	.	4B\	no-	.
8r	.	.	.	.	.	.	.	.
.	16bJk 16g 16d/	.	.	.	.	.	.	.
8Gn 8GGn\	8.ddL 8.b 8.g 8.d/	.	4G\	.	.	4d 4B\	-wych	.
8r	.	.	.	.	.	.	.	.
!	!LO:TX:B:b:t==D:color=red	!	!	!	!	!	!	!
.	16ddJk 16b 16g/	.	.	.	.	.	.	.
=30	=30	=30	=30	=30	=30	=30	=30	=30
!	!	!	!LO:SIC:v:s=Gn 	!	!	!	!	!
8.GnL 8.E 8.Cn\	4ee 4ccn 4gn 4e/	.	2.G#^^> 2.Cn/	.	.	2.e 2.cn^^>\	dróg.	.
16EJk 16C\	.	.	.	.	.	.	.	.
8.EL 8.C\	4r	.	.	.	.	.	.	.
16EJk 16C\	.	.	.	.	.	.	.	.
*rep	*	*	*	*	*	*	*	*
8.EL 8.C\	4..gn 4..cny 4..Gn/	.	.	.	.	.	.	.
16EJk 16C\	.	.	.	.	.	.	.	.
*Xrep	*	*	*	*	*	*	*	*
*rep	*	*	*	*	*	*	*	*
8.EL 8.C\	.	.	4r	.	.	4r	.	.
!	!LO:TX:B:a:t==H:color=red	!	!	!	!	!LO:TX:b:t=x	!	!
16EJk 16C\	16g 16c 16G/	.	.	.	.	.	.	.
*Xrep	*	*	*	*	*	*	*	*
=31	=31	=31	=31	=31	=31	=31	=31	=31
!	!	!	!	!	!	!LO:TX:B:a:t=a=:color=red	!	!
8.EL 8.Cn\	2gn 2cn 2Gn/	.	1r	.	.	1r	.	.
16EJk 16C\	.	.	.	.	.	.	.	.
*rep	*	*	*	*	*	*	*	*
8.EL 8.C\	.	.	.	.	.	.	.	.
16EJk 16C\	.	.	.	.	.	.	.	.
*Xrep	*	*	*	*	*	*	*	*
*rep	*	*	*	*	*	*	*	*
8.EL 8.C\	4..g 4..c 4..G/	.	.	.	.	.	.	.
16EJk 16C\	.	.	.	.	.	.	.	.
*Xrep	*	*	*	*	*	*	*	*
*rep	*	*	*	*	*	*	*	*
8.EL 8.C\	.	.	.	.	.	.	.	.
16EJk 16C\	16g 16c 16G/	.	.	.	.	.	.	.
*Xrep	*	*	*	*	*	*	*	*
=32	=32	=32	=32	=32	=32	=32	=32	=32
!	!LO:TX:a:t=P:problem:kauda z lewej strony	!	!	!	!	!	!	!
!	!LO:SIC:v:s=gn	!	!	!	!LO:DY:a:rj	!	!	!LO:DY:a:rj
*	*	*	*	*	*	*	*above	*
8.EL 8.Cn\	2g# 2cn/	.	4..cn^>\	.	f	4..cn^>\	Sły-	f
16GnJk 16E\	.	.	.	.	.	.	.	.
8.GL 8.E\	.	.	.	.	.	.	.	.
16GJk 16E\	.	.	16Gn\	.	.	16Gn/	-szysz!	.
*rep	*	*	*	*	*	*	*	*
8.GL 8.E\	8.e/L	.	8.E\	.	.	8.E/	grzmi	.
16GJk 16E\	16cn/K	.	16Cn\	.	.	16Cn/	już	.
*Xrep	*	*	*	*	*	*	*	*
*rep	*	*	*	*	*	*	*	*
8.GL 8.E\	8.e/	.	8.E\	.	.	8.E/	zło-	.
16GJk 16E\	16gn/Jk	.	16G\	.	.	16G/	-ty	.
*Xrep	*	*	*	*	*	*	*	*
=33	=33	=33	=33	=33	=33	=33	=33	=33
!	!LO:TX:B:b:t=E=:color=red	!	!	!	!	!	!	!
8.GnL 8.E\	4ccn/	.	2.cn\	.	.	2.cn\	róg!	.
16E\Jk	.	.	.	.	.	.	.	.
8.E\L	8.gnL 8.cn 8.Gn/	.	.	.	.	.	.	.
!	!LO:TX:a:t=P:problem:brak główek	!	!	!	!	!	!	!
16E\Jk	16gJk 16c 16G/	.	.	.	.	.	.	.
*rep	*	*	*	*	*	*	*	*
!	!LO:TX:a:t=P:problem:brak główek	!	!	!	!	!	!	!
8.E\L	4g 4c 4G/	.	.	.	.	.	.	.
16E\Jk	.	.	.	.	.	.	.	.
*Xrep	*	*	*	*	*	*	*	*
*rep	*	*	*	*	*	*	*	*
!	!LO:TX:a:t=P:problem:brak główek	!	!	!	!	!	!	!
8.E\L	4g 4c 4G/	.	4r	.	.	4r	.	.
16E\Jk	.	.	.	.	.	.	.	.
*Xrep	*	*	*	*	*	*	*	*
!!LO:PB:g=original
=34	=34	=34	=34	=34	=34	=34	=34	=34
!LO:TX:b:t=74:color=grey	!	!	!	!	!	!	!	!
8.GnL 8.E 8.AA\	4..cc#X^< 4..gn 4..e 4..c#X/	.	4..c#X^>\	.	.	4..c#X^>\	Sły-	.
16GJk 16E\	.	.	.	.	.	.	.	.
8.GL 8.E\	.	.	.	.	.	.	.	.
16GJk 16E\	16a/	.	16A\	.	.	16A/	-szysz!	.
*rep	*	*	*	*	*	*	*	*
8.GL 8.E\	8.e/L	.	8.E\	.	.	8.E/	grzmi	.
16GJk 16E\	16c#/K	.	16C#\	.	.	16C#X/	już	.
*Xrep	*	*	*	*	*	*	*	*
*rep	*	*	*	*	*	*	*	*
8.GL 8.E\	8.e/	.	8.E\	.	.	8.E/	zło-	.
16GJk 16E\	16a/Jk	.	16A\	.	.	16A/	-ty	.
*Xrep	*	*	*	*	*	*	*	*
!	!	!	!	!	!	!LO:TX:a:t=x	!	!
=35	=35	=35	=35	=35	=35	=35	=35	=35
8.GnL 8.E\	8.cc#XL 8.e 8.c#X/	.	2.c#X\	.	.	2.c#X\	róg!	.
16GJk 16E\	16gnJk 16e/	.	.	.	.	.	.	.
*rep	*	*	*	*	*	*	*	*
8.GL 8.E\	8.gL 8.e/	.	.	.	.	.	.	.
16GJk 16E\	16gJk 16e/	.	.	.	.	.	.	.
*Xrep	*	*	*	*	*	*	*	*
8.EL 8.AA/	8.e/L	.	.	.	.	.	.	.
16AK 16AA/	16a/K	.	.	.	.	.	.	.
8AJ 8AA/	8a/J	.	8.r	.	.	8.r	.	.
!	!	!LO:DY:b	!	!	!	!	!	!
16r	16r	ff	.	.	.	.	.	.
!	!	!	!	!	!LO:DY:a:rj	!	!	!LO:DY:a:rj
16D 16DD/	16dd 16a 16fn 16d/	.	16d\	.	ff	16d\	To	ff
=36	=36	=36	=36	=36	=36	=36	=36	=36
!LO:TX:b:t=68:color=blue	!	!	!	!	!	!	!	!
8D 8DD/	(>2dd 2a 2fn 2d/	.	2d^>\	.	.	2d^>\	Sy-	.
16r	.	.	.	.	.	.	.	.
16A 16Fn 16D\	.	.	.	.	.	.	.	.
8.AL 8.F 8.D\	.	.	.	.	.	.	.	.
16AJk 16AA\	.	.	.	.	.	.	.	.
8.AL 8.AA\	4..cc# 4..a 4..e/)	.	4c#\	.	.	4c#\	-wa!	.
16AK 16E\	.	.	.	.	.	.	.	.
8AJ 8E\	.	.	8.r	.	.	8.r	.	.
16r	.	.	.	.	.	.	.	.
!	!	!LO:FY:b	!	!	!LO:DY:b:rj	!	!	!LO:DY:a:rj
16Cn 16CCn/	16ee 16ccn 16gn 16e/	ff	16cn\	.	ff	16e\	To	ff
=37	=37	=37	=37	=37	=37	=37	=37	=37
!LO:TX:b:t=81:color=blue	!	!	!	!	!	!	!	!
8Cn 8CCn/	(>2ee 2ccn 2gn 2e/	.	2cn^>\	.	.	2e^>\	Sy-	.
16r	.	.	.	.	.	.	.	.
16cnKL 16Gn 16E\	.	.	.	.	.	.	.	.
8.c 8.G 8.E\	.	.	.	.	.	.	.	.
16cJk 16C\	.	.	.	.	.	.	.	.
8.BL 8.BB\	4dd#X 4b 4f#/)	.	4B\	.	.	4d#X\	-wa!	.
*	*	*	*	*	*	*	*below	*
16BK 16F#\	.	.	.	.	.	.	.	.
8BJ 8F#\	8.r	.	8.r	.	.	8.r	.	.
16r	.	.	.	.	.	.	.	.
!	!	!LO:DY:b=2:rj	!	!	!LO:DY:a:rj	!	!	!LO:DY:a:rj
16A 16AA/	16ff# 16dd#X 16a/	ff	16A\	To	ff	16f#\	to	ff
!	!	!	!	!	!	!LO:TX:a:t=x	!	!
=38	=38	=38	=38	=38	=38	=38	=38	=38
*	*^	*	*	*	*	*	*	*
!	!	!	!LO:DY:b:t=sff:color=black:rj	!	!	!	!	!	!
8.A 8.AA/	1ff# 1dd#X	2a\	sf	2A^>\	Sy-	.	[>1f#^>	pię-	.
16cn 16A\	.	.	.	.	.	.	.	.	.
8.c 8.A\	.	.	.	.	.	.	.	.	.
16A 16AA/	.	.	.	.	.	.	.	.	.
!	!	!	!	!LO:ACC:color=blue	!	!	!	!	!
8.G#XL 8.GG#X/	.	4b\	.	4G#X\	-wa	.	.	.	.
16G#Jk 16GG#/	.	.	.	.	.	.	.	.	.
8.F#L 8.FF#/	.	4b#X\	.	4F#\	to	.	.	.	.
16F#Jk 16FF#/	.	.	.	.	.	.	.	.	.
*	*v	*v	*	*	*	*	*	*	*
!!LO:LB:g=original
=39	=39	=39	=39	=39	=39	=39	=39	=39
8.C#\L	4cc#/	.	4..c#\	pię-	.	4..f#\]	.	.
16AJk 16F#\	.	.	.	.	.	.	.	.
8.AL 8.F#\	8.cc#L 8.a 8.f#/	.	.	.	.	.	.	.
16C#\Jk	16cc#Jk 16a 16f#/	.	16c#\	-cio-	.	16c#\	-cio-	.
8.C#\L	4cc# 4g# 4f#/	.	4c#\	-gło-	.	4c#\	-gło-	.
16c#Jk 16G#\	.	.	.	.	.	.	.	.
!	!LO:TX:B:b:t==B:color=red	!	!	!	!	!LO:TX:a:B:t==B:color=red	!	!
8.c#L 8.G#\	4cc# 4g# 4e#X/	.	4c#\	-wy	.	4c#\	-wy	.
16C#\Jk	.	.	.	.	.	.	.	.
=40	=40	=40	=40	=40	=40	=40	=40	=40
8F# 8FF#/	8.aL 8.f#/	.	2.d^>\	.	.	2.d^>\	Bog	.
16r	.	.	.	.	.	.	.	.
16A 16F#\	16aJk 16f#/	.	.	.	.	.	.	.
*	*rep	*	*	*	*	*	*	*
!	!LO:TX:B:a:t=40:color=red	!	!	!	!	!	!	!
8.AL 8.F#\	8.aL 8.f#/	.	.	.	.	.	.	.
16AJk 16F#\	16aJk 16f#/	.	.	.	.	.	.	.
*	*Xrep	*	*	*	*	*	*	*
*	*rep	*	*	*	*	*	*	*
8A 8F#\	8.aL 8.f#/	.	.	.	.	.	.	.
8r	.	.	.	.	.	.	.	.
.	16aJk 16f#/	.	.	.	.	.	.	.
*	*Xrep	*	*	*	*	*	*	*
*	*rep	*	*	*	*	*	*	*
8D 8DD/	8.aL 8.f#/	.	8.D\	.	.	8.A 8.F#/	Łań-	.
8ryy	.	.	.	.	.	.	.	.
.	16aJk 16f#/	.	16D\	.	.	16A 16F#/	-cuch	.
*	*Xrep	*	*	*	*	*	*	*
!	!	!	!	!	!	!LO:TX:a:t=x	!	!
=41	=41	=41	=41	=41	=41	=41	=41	=41
*	*	*	*	*	*	*^	*	*
!	!LO:SIC:v:s=gn	!	!	!	!	!	!	!	!
!	!LO:TX:B:b:t=C=:color=red	!	!	!	!	!	!	!	!
8Gnyy 8GGn/yy	8.bLyy 8.g#yy 8.d/yy	.	4Gn\	.	.	4B/	4Gn\	cza-	.
8ryy	.	.	.	.	.	.	.	.	.
.	16d/Jkyy	.	.	.	.	.	.	.	.
!	!LO:SIC:v:s=gn	!	!	!	!	!	!	!	!
8D/yy	8.g#Lyy 8.dyy 8.B/yy	.	4D\	.	.	4Gn/	4Gn\	-szek	.
8ryy	.	.	.	.	.	.	.	.	.
!	!LO:TX:a:t=P:problem:brak główek	!	!	!	!	!	!	!	!
.	16g#Jkyy 16dyy 16B/yy	.	.	.	.	.	.	.	.
!	!LO:SIC:v:s=gn	!	!	!	!	!	!	!	!
8BB/yy	8.bLyy 8.g#yy 8.d/yy	.	4BB/	.	.	4B/	4G\	z szy-	.
8ryy	.	.	.	.	.	.	.	.	.
.	16d/Jkyy	.	.	.	.	.	.	.	.
!	!LO:SIC:v:s=gn	!	!	!	!	!	!	!	!
8GG/yy	8.ddLyy 8.byy 8.g#/yy	.	4G 4GGn/	.	.	4d/	4B\	-i	.
8ryy	.	.	.	.	.	.	.	.	.
.	16d/Jkyy	.	.	.	.	.	.	.	.
!!LO:LB:g=original
=42	=42	=42	=42	=42	=42	=42	=42	=42	=42
8D\yy	8.ddLyy 8.ayy 8.f#/yy	.	2F# 2D\	.	.	2d 2A\	2ryy	spły-	.
8ryy	.	.	.	.	.	.	.	.	.
.	16dJkyy 16A<yy 16F#</yy	.	.	.	.	.	.	.	.
8AA\yy	8.dLyy 8.A<yy 8.F#</yy	.	.	.	.	.	.	.	.
8ryy	.	.	.	.	.	.	.	.	.
.	16f#Jkyy 16dyy 16A</yy	.	.	.	.	.	.	.	.
8F#yy 8FF#\yy	8.f#Lyy 8.dyy 8.A</yy	.	8F# 8D\	.	.	8A/	8A\	-wa,	.
8ryy	.	.	8r	.	.	8rc	8ryy	.	.
.	16aJkyy 16dyy 16A</yy	.	.	.	.	.	.	.	.
8Dyy 8DD/yy	8.aLyy 8.f#yy 8.d/yy	.	8.D\	.	.	8.A 8.F#/	4ryy	kła-	.
8ryy	.	.	.	.	.	.	.	.	.
.	16aJkyy 16f#yy 16d/yy	.	16D\	.	.	16A 16F#/	.	-mi	.
=43	=43	=43	=43	=43	=43	=43	=43	=43	=43
8Gnyy 8GGn\yy	8.bLyy 8.gnyy 8.d/yy	.	4Gn\	.	.	4B 4Gn/	4ryy	gro-	.
8ryy	.	.	.	.	.	.	.	.	.
.	16dJkyy 16B/yy	.	.	.	.	.	.	.	.
8D\yy	8.gLyy 8.dyy 8.B/yy	.	4D/	.	.	4G/	4G\	-zi	.
8ryy	.	.	.	.	.	.	.	.	.
.	16gJkyy 16dyy 16B/yy	.	.	.	.	.	.	.	.
8Byy 8BB\yy	8.bLyy 8.gyy 8.d/yy	.	4BB/	.	.	4B 4G\	2ryy	pasz-	.
8ryy	.	.	.	.	.	.	.	.	.
.	16bJkyy 16gyy 16d/yy	.	.	.	.	.	.	.	.
8Gnyy 8GGn\yy	8.ddLyy 8.byy 8.gyy 8.d/yy	.	4G 4GGn/	.	.	4d 4B\	.	-cza	.
8ryy	.	.	.	.	.	.	.	.	.
!	!LO:TX:B:b:t==D:color=red	!	!	!	!	!	!	!	!
.	16ddJkyy 16byy 16g/yy	.	.	.	.	.	.	.	.
!	!	!	!	!	!	!LO:TX:a:t=x	!	!	!
=44	=44	=44	=44	=44	=44	=44	=44	=44	=44
*	*	*	*^	*	*	*	*	*	*
!LO:TX:b:t=75:color=grey	!	!	!	!	!	!	!	!	!	!
!LO:TX:b:t=69:color=blue	!	!	!LO:ACC:n=1:color=blue	!	!	!	!	!	!	!
8.Cn 8.CCny/	8.eeL 8.ccn 8.gn 8.e/	.	2.Gn 2.Cn\	2ryy	.	.	2.e 2.cn\	2ryy	mści-	.
16Gn 16E\	16gJk 16e/	.	.	.	.	.	.	.	.	.
8.GL 8.E\	8.gL 8.e/	.	.	.	.	.	.	.	.	.
16GJk 16E\	16gJk 16e/	.	.	.	.	.	.	.	.	.
*rep	*rep	*	*	*	*	*	*	*	*	*
8.GL 8.E\	8.gL 8.e/	.	.	4ryy	.	.	.	4ryy	.	.
16GJk 16E\	16gJk 16e/	.	.	.	.	.	.	.	.	.
*Xrep	*Xrep	*	*	*	*	*	*	*	*	*
*rep	*rep	*	*	*	*	*	*	*	*	*
8.GL 8.E\	8.gL 8.e/	.	4Gn/	4Gn\	.	.	4Gn/	4Gn\	-wa;	.
16GJk 16E\	16gJk 16e/	.	.	.	.	.	.	.	.	.
*Xrep	*Xrep	*	*	*	*	*	*	*	*	*
*	*	*	*v	*v	*	*	*	*	*	*
*	*	*	*	*	*	*v	*v	*	*
=45	=45	=45	=45	=45	=45	=45	=45	=45
*	*	*	*	*	*	*	*above	*
!	!LO:TX:B:a:t=X=:color=red	!	!	!	!	!LO:TX:B:a:t=X=:color=red	!	!
8.GnL 8.E\	4..ccn 4..gn 4..cn/	.	4..cn^>\	.	.	4..cn^>\	wo-	.
16GJk 16E\	.	.	.	.	.	.	.	.
*rep	*	*	*	*	*	*	*	*
8.GL 8.E\	.	.	.	.	.	.	.	.
16GJk 16E\	16g/	.	16Gn\	.	.	16Gn/	-nią	.
*Xrep	*	*	*	*	*	*	*	*
*rep	*	*	*	*	*	*	*	*
8.GL 8.E\	8.e/L	.	8.E\	.	.	8.E/	zio-	.
16GJk 16E\	16c/K	.	16Cn\	.	.	16Cn/	-nie	.
*Xrep	*	*	*	*	*	*	*	*
*rep	*	*	*	*	*	*	*	*
8.GL 8.E\	8.e/	.	8.E\	.	.	8.E/	w dal	.
16GJk 16E\	16g/Jk	.	16G\	.	.	16G/	gro-	.
*Xrep	*	*	*	*	*	*	*	*
=46	=46	=46	=46	=46	=46	=46	=46	=46
!	!LO:TX:B:b:t=E=:color=red	!	!	!	!	!	!	!
8.GnLyy 8.E\yy	4ccn/yy	.	2.cn\	.	.	2.cn\	-bo-	.
16E\Jkyy	.	.	.	.	.	.	.	.
8.E\Lyy	8.gnLyy 8.cnyy 8.Gn/yy	.	.	.	.	.	.	.
!	!LO:TX:a:t=P:problem:brak główek	!	!	!	!	!	!	!
16E\Jkyy	16gJkyy 16cyy 16G/yy	.	.	.	.	.	.	.
*rep	*	*	*	*	*	*	*	*
!	!LO:TX:a:t=P:problem:brak główek	!	!	!	!	!	!	!
8.E\Lyy	4gyy 4cyy 4G/yy	.	.	.	.	.	.	.
16E\Jkyy	.	.	.	.	.	.	.	.
*Xrep	*	*	*	*	*	*	*	*
*rep	*	*	*	*	*	*	*	*
!	!LO:TX:a:t=P:problem:brak główek	!	!	!	!	!	!	!
8.E\Lyy	4gyy 4cyy 4G/yy	.	4c\	.	.	4c\	-wą	.
16E\Jkyy	.	.	.	.	.	.	.	.
*Xrep	*	*	*	*	*	*	*	*
!!LO:PB:g=original
=47	=47	=47	=47	=47	=47	=47	=47	=47
!	!	!	!	!	!	!LO:TX:a:t=x:rj	!	!
8.GnLyy 8.Eyy 8.AA\yy	4..cc#X^<yy 4..gnyy 4..eyy 4..c#X/yy	.	4..c#X\	.	.	4..c#X^>\	Błysk	.
16GJkyy 16E\yy	.	.	.	.	.	.	.	.
8.GLyy 8.E\yy	.	.	.	.	.	.	.	.
16GJkyy 16E\yy	16a/yy	.	16A\	.	.	16A/	mu	.
*rep	*	*	*	*	*	*	*	*
8.GLyy 8.E\yy	8.e/Lyy	.	8.E\	.	.	8.E/	wzro-	.
16GJkyy 16E\yy	16c#/Kyy	.	16C#\	.	.	16C#/	-kiem,	.
*Xrep	*	*	*	*	*	*	*	*
*rep	*	*	*	*	*	*	*	*
8.GLyy 8.E\yy	8.e/yy	.	8.E\	.	.	8.E/	grom	.
16GJkyy 16E\yy	16a/Jkyy	.	16A\	.	.	16A/	mu	.
*Xrep	*	*	*	*	*	*	*	*
=48	=48	=48	=48	=48	=48	=48	=48	=48
8.GnLyy 8.E\yy	8.cc#XLyy 8.eyy 8.c#X/yy	.	2c#\	.	.	2c#X\	mo-	.
16GJkyy 16E\yy	16gnJkyy 16e/yy	.	.	.	.	.	.	.
*rep	*	*	*	*	*	*	*	*
8.GLyy 8.E\yy	8.gLyy 8.e/yy	.	.	.	.	.	.	.
16GJkyy 16E\yy	16gJkyy 16e/yy	.	.	.	.	.	.	.
*Xrep	*	*	*	*	*	*	*	*
8.ELyy 8.AA/yy	8.e/Lyy	.	4c#\	.	.	4c#\	-wą.	.
16AKyy 16AA/yy	16a/Kyy	.	.	.	.	.	.	.
8AJyy 8AA/yy	8a/Jyy	.	8.r	.	.	8.r	.	.
!	!	!LO:DY:b	!	!	!	!	!	!
16ryy	16ryy	ff	.	.	.	.	.	.
!	!	!	!	!	!LO:DY:a:rj	!	!	!LO:DY:a:rj
16Dyy 16DD/yy	16ddyy 16ayy 16fnyy 16d/yy	.	16d\	.	ff	16d\	To	ff
=49	=49	=49	=49	=49	=49	=49	=49	=49
8Dyy 8DD/yy	(>2ddyy 2ayy 2fnyy 2dyy/	.	2d^>\	.	.	2d^>\	Sy-	.
16ryy	.	.	.	.	.	.	.	.
16Ayy 16Fnyy 16D\yy	.	.	.	.	.	.	.	.
8.ALyy 8.Fyy 8.D\yy	.	.	.	.	.	.	.	.
16AJkyy 16AA\yy	.	.	.	.	.	.	.	.
8.ALyy 8.AA\yy	4..cc#yy 4..ayy 4..eyy/)	.	4c#\	.	.	4c#\	-wa!	.
16AKyy 16E\yy	.	.	.	.	.	.	.	.
8AJyy 8E\yy	.	.	8.r	.	.	8.r	.	.
16ryy	.	.	.	.	.	.	.	.
!	!	!LO:DY:b	!	!	!	!	!	!
16Cnyy 16CCn/yy	16eeyy 16ccnyy 16gnyy 16eyy/	ff	16cn\	.	.	16e\	to	.
=50	=50	=50	=50	=50	=50	=50	=50	=50
!LO:TX:b:t=76:color=red	!	!	!	!	!	!	!	!
8Cnyy 8CCn/yy	(>2eeyy 2ccnyy 2gnyy 2eyy/	.	2cn^>\	.	.	2e^>\	Sy-	.
16ryy	.	.	.	.	.	.	.	.
16cnKLyy 16Gnyy 16E\yy	.	.	.	.	.	.	.	.
8.cyy 8.Gyy 8.E\yy	.	.	.	.	.	.	.	.
16cJkyy 16C\yy	.	.	.	.	.	.	.	.
8.BLyy 8.BB\yy	4dd#Xyy 4byy 4f#yy/)	.	4B\	.	.	4d#X\	-wa!	.
16BKyy 16F#\yy	.	.	.	.	.	.	.	.
8BJyy 8F#\yy	8.ryy	.	8.r	.	.	8.r	.	.
16ryy	.	.	.	.	.	.	.	.
!	!	!LO:DY:b=2:rj	!	!	!	!	!	!
16Ayy 16AA/yy	16ff#yy 16dd#Xyy 16ayy/	ff	16A\	to	.	16f#\	to	.
=51	=51	=51	=51	=51	=51	=51	=51	=51
*	*^	*	*	*	*	*	*	*
!	!	!	!LO:DY:b:t=sff:color=black:rj	!	!	!	!	!	!
8.Ayy 8.AA/yy	1ff#yy 1dd#Xyy	2a\yy	sf	2A^>\	Sy-	.	[>1f#^>	pię-	.
16cnyy 16A\yy	.	.	.	.	.	.	.	.	.
8.cyy 8.A\yy	.	.	.	.	.	.	.	.	.
16Ayy 16AA/yy	.	.	.	.	.	.	.	.	.
!	!	!	!	!LO:ACC:color=blue	!	!	!	!	!
8.G#XLyy 8.GG#X/yy	.	4b\yy	.	4G#X\	-wa,	.	.	.	.
16G#Jkyy 16GG#/yy	.	.	.	.	.	.	.	.	.
8.F#Lyy 8.FF#/yy	.	4b#X\yy	.	4F#\	to	.	.	.	.
16F#Jkyy 16FF#/yy	.	.	.	.	.	.	.	.	.
*	*v	*v	*	*	*	*	*	*	*
!!LO:LB:g=original
=52	=52	=52	=52	=52	=52	=52	=52	=52
!LO:TX:b:t=70:color=blue	!	!	!	!	!	!LO:TX:B:b:t=X:color=blue:rj	!	!
8.C#\Lyy	4cc#/yy	.	4..c#\	pię-	.	4..f#\]	.	.
16AJkyy 16F#\yy	.	.	.	.	.	.	.	.
8.ALyy 8.F#\yy	8.cc#Lyy 8.ayy 8.f#/yy	.	.	.	.	.	.	.
16C#\Jkyy	16cc#Jkyy 16ayy 16f#/yy	.	16c#\	-cio-	.	16c#\	-cio-	.
8.C#\Lyy	4cc#yy 4g#yy 4f#/yy	.	4c#\	-gło-	.	4c#\	-gło-	.
16c#Jkyy 16G#\yy	.	.	.	.	.	.	.	.
!	!LO:TX:B:b:t==B:color=red	!	!	!	!	!LO:TX:a:B:t==Z:color=red	!	!
8.c#Lyy 8.G#\yy	4cc#yy 4g#yy 4e#X/yy	.	4c#\	-wy	.	4c#\	-wy	.
16C#\Jkyy	.	.	.	.	.	.	.	.
!	!	!	!	!	!	!LO:TX:b:t=x	!	!
=53	=53	=53	=53	=53	=53	=53	=53	=53
*	*Xtremolo	*	*	*	*	*	*	*
8F# 8FF#/	8f#/L	.	2F#\	.	.	2F#/	Bóg!	.
!	!	!LO:DY:b	!	!	!	!	!	!
8r	8f#/J	p	.	.	.	.	.	.
8F#\	8r	.	.	.	.	.	.	.
8r	8f#/	.	.	.	.	.	.	.
8F# 8FF#\	8r	.	4r	.	.	4r	.	.
8rBB	8f# 8F#</	.	.	.	.	.	.	.
!	!	!	!	!	!LO:DY:a:rj:color=blue	!	!	!LO:DY:a:rj:color=blue
8F#\	8r	.	8.F#\	.	p	8.F#/	Już	p
8rBB	8f# 8F#</	.	.	.	.	.	.	.
.	.	.	16F#\	.	.	16F#/	się	.
!!ignor
=54	=54	=54	=54	=54	=54	=54	=54	=54
8E 8EE\	8r	.	2F#\	.	.	2F#/	zbli-	.
8rBB	8f# 8F#</	.	.	.	.	.	.	.
*	*rep	*	*	*	*	*	*	*
8F#\	8r	.	.	.	.	.	.	.
8rBB	8f# 8F#</	.	.	.	.	.	.	.
*	*Xrep	*	*	*	*	*	*	*
*	*rep	*	*	*	*	*	*	*
8E 8EE\	8r	.	8F#\	.	.	8F#/	-ża	.
8rBB	8f# 8F#</	.	8r	.	.	8r	.	.
*	*Xrep	*	*	*	*	*	*	*
*	*rep	*	*	*	*	*	*	*
8F#\	8r	.	8.F#\	.	.	8.F#/	przez	.
8rBB	8f# 8F#</	.	.	.	.	.	.	.
.	.	.	16F#\	.	.	16F#/	ob-	.
*	*Xrep	*	*	*	*	*	*	*
=55	=55	=55	=55	=55	=55	=55	=55	=55
*	*rep	*	*	*	*	*	*	*
8D/ 8DD/	8r	.	2F#\	.	.	2F#/	-sza-	.
8rBB	8f# 8F#</	.	.	.	.	.	.	.
8F#\	8r	.	.	.	.	.	.	.
8rBB	8f# 8F#</	.	.	.	.	.	.	.
8D/ 8DD/	8r	.	8F#\	.	.	8F#/	-ry	.
8rBB	8f# 8F#</	.	8r	.	.	8r	.	.
8F#\	8r	.	8.F#\	.	.	8.F#/	czer-	.
8rBB	8f# 8F#</	.	.	.	.	.	.	.
.	.	.	16F#\	.	.	16F#/	-wo-	.
*	*Xrep	*	*	*	*	*	*	*
!	!	!	!	!	!	!LO:TX:b:t=x	!	!
=56	=56	=56	=56	=56	=56	=56	=56	=56
*	*rep	*	*	*	*	*	*	*
8C# 8CC#/	8r	.	4.F#\	.	.	4.F#/	-na-	.
8r	8f# 8F#/	.	.	.	.	.	.	.
8FF#/	8r	.	.	.	.	.	.	.
8r	8f# 8F#/	.	8F#\	.	.	8F#/	-wą	.
8BB 8BBB/	8r	.	4.F#\	.	.	4.F#/	łu-	.
8r	8f# 8F#/	.	.	.	.	.	.	.
8FF#/	8r	.	.	.	.	.	.	.
8r	8f# 8F#/	.	8F#\	.	.	8F#/	-ną	.
*	*Xrep	*	*	*	*	*	*	*
!!LO:LB:g=original
=57	=57	=57	=57	=57	=57	=57	=57	=57
*^	*	*	*	*	*	*	*	*
*	*	*rep	*	*	*	*	*	*	*
*	*ped	*	*	*	*	*	*	*	*
!	!LO:TX:a:t=P:problem:"ped" nad 4AA 4AAA	!	!	!	!	!	!	!	!
2ryy	(>4AA 4AAA/	8r	.	2F#\	.	.	2A/	lśni,	.
.	.	8f# 8F#</	.	.	.	.	.	.	.
.	8F#\)	8r	.	.	.	.	.	.	.
.	8rD	8f# 8F#</	.	.	.	.	.	.	.
2c#/	8FF#/	8r	.	4r	.	.	4r	.	.
.	8rD	8f# 8F#</	.	.	.	.	.	.	.
.	8F#\	8r	.	8.F#\	.	.	8.F#/	on	.
.	8rD	8f# 8F#</	.	.	.	.	.	.	.
.	.	.	.	16F#\	.	.	16F#/	nisz-	.
*	*	*Xrep	*	*	*	*	*	*	*
*v	*v	*	*	*	*	*	*	*	*
=58	=58	=58	=58	=58	=58	=58	=58	=58
*	*rep	*	*	*	*	*	*	*
8E 8EE/	8r	.	2F#\	.	.	2F#/	-czy-	.
8r	8f# 8F#</	.	.	.	.	.	.	.
8F#\	8r	.	.	.	.	.	.	.
8r	8f# 8F#</	.	.	.	.	.	.	.
8E 8EE/	8r	.	8F#\	.	.	8F#/	-ciel!	.
8r	8f# 8F#</	.	8r	.	.	8r	.	.
8F#\	8r	.	8.F#\	.	.	8.F#/	on	.
8r	8f# 8F#</	.	.	.	.	.	.	.
.	.	.	16F#\	.	.	16F#/	Bóg	.
*	*Xrep	*	*	*	*	*	*	*
!	!	!	!	!	!	!LO:TX:a:t=+	!	!
=59	=59	=59	=59	=59	=59	=59	=59	=59
*	*rep	*	*	*	*	*	*	*
8D 8DD/	8r	.	2F#\	.	.	2F#/	Ka-	.
8r	8f# 8F#</	.	.	.	.	.	.	.
8F#\	8r	.	.	.	.	.	.	.
8r	8f# 8F#</	.	.	.	.	.	.	.
8D 8DD/	8r	.	8F#\	.	.	8F#/	-ry	.
8r	8f# 8F#</	.	8r	.	.	8r	.	.
8F#\	8r	.	8.F#\	.	.	8.F#/	w łzach	.
8r	8f# 8F#</	.	.	.	.	.	.	.
.	.	.	16F#\	.	.	16F#/	się	.
*	*Xrep	*	*	*	*	*	*	*
=60	=60	=60	=60	=60	=60	=60	=60	=60
*	*^	*	*	*	*	*	*	*
!LO:TX:b:t=71:color=blue	!	!LO:TX:t=P:problem:mixed beam	!	!	!	!	!	!	!
8C# 8CC#/	4.a 4.e/	8c#\L	.	4.F#\	.	.	4.F#/	pła-	.
8r	.	8A</J	.	.	.	.	.	.	.
!	!	!LO:TX:a:B:t=60:color=red	!	!	!	!	!	!	!
8E\	.	8r	.	.	.	.	.	.	.
8r	8a 8e/	8c#\	.	8E\	.	.	8F#/	-wi,	.
!	!	!LO:TX:t=P:problem:mixed beam	!	!	!	!	!	!	!
8BB 8BBB/	4.g#X 4.e/	8d\L	.	4.D\	.	.	4.G#X 4.E/	to-	.
8r	.	8B</J	.	.	.	.	.	.	.
8E\	.	8r	.	.	.	.	.	.	.
8r	8g# 8e/	8d\	.	8D 8BB\	.	.	8G# 8E/	-nie	.
*	*v	*v	*	*	*	*	*	*	*
=61	=61	=61	=61	=61	=61	=61	=61	=61
*	*	*	*^	*	*	*^	*	*
4AA/	4a 4e 4c#/	.	4C# 4AA/	2ryy	.	.	4A 4E/	2ryy	w krwi.	.
4r	16A/LL	.	4r	.	.	.	4rc	.	.	.
.	16B/	.	.	.	.	.	.	.	.	.
.	16c#/	.	.	.	.	.	.	.	.	.
.	16d/JJ	.	.	.	.	.	.	.	.	.
2r	16e/LL	.	4r	4ryy	.	.	4rc	4ryy	.	.
.	16f#/	.	.	.	.	.	.	.	.	.
.	16gn/	.	.	.	.	.	.	.	.	.
.	16a/JJ	.	.	.	.	.	.	.	.	.
.	8qcc#/	.	.	.	.	.	.	.	.	.
.	16b\LL	.	4A/	4A\	.	.	4A/	4A\	On	.
*	*	*	*	*	*	*	*	*	*below	*
.	16a\	.	.	.	.	.	.	.	.	.
.	16b\	.	.	.	.	.	.	.	.	.
.	16cc#\JJ	.	.	.	.	.	.	.	.	.
!!LO:PB:g=original
=62	=62	=62	=62	=62	=62	=62	=62	=62	=62	=62
!	!	!	!	!	!	!	!LO:TX:a:t=x	!	!	!
!	!	!LO:DY:b:rj	!LO:TX:i:a:t=marcato	!	!	!LO:DY:a:rj:color=blue	!LO:TX:i:a:t=marcato assai	!	!	!LO:DY:a:rj:color=blue
4A 4D\	4dd 4f#/	ff	4F# 4D\	2ryy	.	ff	4d 4A\	2ryy	cio-	ff
8.AL 8.D\	8.ddL 8.f#/	.	8.F# 8.D\	.	.	.	8.d 8.A\	.	-som	.
16AJk 16D\	16ddJk 16f#/	.	16F# 16D\	.	.	.	16d 16A\	.	swej	.
4A 4AA\	4cc# 4e/	.	4E/	4E\	.	.	4c# 4A\	4ryy	rę-	.
4A 4AA\	4cc# 4a 4e/	.	8.A\	4ryy	.	.	8.c#/	8.c#\	-ki	.
.	.	.	16A\	.	.	.	16c#/	16c#\	śle	.
=63	=63	=63	=63	=63	=63	=63	=63	=63	=63	=63
4B 4Gn 4E\	4ee 4b 4gn 4e/	.	2Gn 2E^^>\	2ryy	.	.	2e 2B^^>\	2ryy	skaz,	.
4r	16B/LL	.	.	.	.	.	.	.	.	.
.	16c#/	.	.	.	.	.	.	.	.	.
.	16d/	.	.	.	.	.	.	.	.	.
.	16e/JJ	.	.	.	.	.	.	.	.	.
2r	16f#/LL	.	4r	4ryy	.	.	4rc	4ryy	.	.
.	16gn/	.	.	.	.	.	.	.	.	.
.	16a/	.	.	.	.	.	.	.	.	.
.	16b/JJ	.	.	.	.	.	.	.	.	.
.	8qdd/	.	.	.	.	.	.	.	.	.
*	*	*	*	*	*	*	*	*	*above	*
.	16cc#\LL	.	4B/	4B\	.	.	4B/	4B\	z ty-	.
.	16b\	.	.	.	.	.	.	.	.	.
.	16cc#\	.	.	.	.	.	.	.	.	.
.	16dd\JJ	.	.	.	.	.	.	.	.	.
=64	=64	=64	=64	=64	=64	=64	=64	=64	=64	=64
!	!	!	!LO:ACC:color=blue	!	!	!	!	!	!	!
4B 4E\	4ee 4gn\	.	4Gn 4E'>\	2ryy	.	.	4e 4B\	2ryy	-gry-	.
8.BL 8.E\	8.eeL 8.g\	.	8.G 8.E\	.	.	.	8.e 8.B\	.	-siej	.
16BJk 16E\	16eeJk 16g\	.	16G 16E\	.	.	.	16e 16B\	.	pa-	.
4B 4BB\	4dd 4f#/	.	4F#/	4F#\	.	.	4d 4B\	4ryy	-szczę-	.
4B\	4dd 4b 4f#/	.	8.B/	8.B\	.	.	8.d/	8.d\	-ki	.
.	.	.	16B/	16B\	.	.	16d/	16d\	ma	.
=65	=65	=65	=65	=65	=65	=65	=65	=65	=65	=65
!LO:TX:b:t=77:color=grey	!	!	!	!	!	!	!LO:TX:b:t=x	!	!	!
4d 4A 4D\	4ff#/ 4dd/ 4a/ 4f#/	.	2A^^>\	2ryy	.	.	2f# 2d^^>\	2ryy	tron,	.
4r	16d/LL	.	.	.	.	.	.	.	.	.
.	16e/	.	.	.	.	.	.	.	.	.
.	16f#/	.	.	.	.	.	.	.	.	.
.	16gn/JJ	.	.	.	.	.	.	.	.	.
2r	16a\LL	.	4r	4ryy	.	.	4rc	4ryy	.	.
.	16b\	.	.	.	.	.	.	.	.	.
.	16ccn\	.	.	.	.	.	.	.	.	.
.	16dd\JJ	.	.	.	.	.	.	.	.	.
.	16ee\LL	.	4D/	4D\	.	.	4d/	4d\	gdzie	.
.	16ff#\	.	.	.	.	.	.	.	.	.
.	16ggn\	.	.	.	.	.	.	.	.	.
.	16aa\JJ	.	.	.	.	.	.	.	.	.
=66	=66	=66	=66	=66	=66	=66	=66	=66	=66	=66
*^	*	*	*	*	*	*	*	*	*	*
!LO:SIC:v:s=Gn	!	!	!	!	!	!	!	!	!	!	!
4d 4B 4G#\	4ryy	4bb 4ggn\	.	4Gn/	4Gn\	.	.	4gn 4B\	4ryy	bo-	.
!LO:SIC:v:s=Gn	!	!	!	!	!	!	!	!	!	!	!
2d 2B/	(<4G#\	8.bbL 8.dd 8.b\	.	8.G/	8.G\	.	.	8.d/	8.B\	-leść	.
.	.	16bbJk 16dd 16b\	.	16G/	16G\	.	.	16d/	16B\	i	.
.	4F#\)	4bb 4dd 4b\	.	4d/	4D\	.	.	4f#/	4A\	ję-	.
4d 4B/	4F#\	4bb 4dd 4b\	.	8.F#/	8.F#\	.	.	8.d/	8.d\	-ki	.
.	.	.	.	16F#/	16F#\	.	.	16d/	16d\	tam	.
*	*	*	*	*v	*v	*	*	*	*	*	*
*v	*v	*	*	*	*	*	*v	*v	*	*
!!LO:LB:g=original
=67	=67	=67	=67	=67	=67	=67	=67	=67
*tremolo	*	*	*	*	*	*	*	*
*2\right	*	*	*	*	*	*	*	*
!	!	!LO:DY:b:t=sff:color=black	!	!	!	!	!	!
*ped	*	*	*	*	*	*	*	*
16EE#X/LL	[>2ddd [>2bb [>2gg#X [<2dd\	sf	1G#X@ [>1E#X	.	.	[>1d [>1B^^>	on!	.
16E#X/	.	.	.	.	.	.	.	.
16EE#/	.	.	.	.	.	.	.	.
16E#/	.	.	.	.	.	.	.	.
16EE#/	.	.	.	.	.	.	.	.
16E#/	.	.	.	.	.	.	.	.
16EE#/	.	.	.	.	.	.	.	.
16E#X/JJ	.	.	.	.	.	.	.	.
!LO:TX:a:t=P:problem:2\right	!	!	!	!	!	!	!	!
16BLL 16G# 16E#\	8ddd] 8bb] 8gg#] 8dd\]	.	.	.	.	.	.	.
16d\	.	.	.	.	.	.	.	.
!	!	!LO:HP:b:t=dimin	!	!	!	!	!	!
16B 16G# 16E#\	8bbL 8dd'>\	>	.	.	.	.	.	.
16d\	.	.	.	.	.	.	.	.
16B 16G# 16E#\	8bb 8dd'>\	.	.	.	.	.	.	.
16d\	.	.	.	.	.	.	.	.
16B 16G# 16E#\	8gg#XJ 8b\	.	.	.	.	.	.	.
16d\JJ	.	.	.	.	.	.	.	.
!	!	!	!	!	!	!LO:TX:a:t=x	!	!
=68	=68	=68	=68	=68	=68	=68	=68	=68
*^	*	*	*	*	*	*	*	*
!LO:SIC:v:s=E#	!	!	!	!	!	!	!	!	!
!LO:TX:b:t=72:color=blue	!	!	!	!	!	!	!	!	!
16BLL 16G#X/	2E\	8gg#L 8b'</	.	4G#@ 4E#\]	.	.	4d] 4B\]	.	.
16d/	.	.	.	.	.	.	.	.	.
16B 16G#/	.	8dd 8b'</	.	.	.	.	.	.	.
16d/	.	.	.	.	.	.	.	.	.
16B 16G#/	.	8dd 8b'</	.	4r	.	.	4r	.	.
16d/	.	.	.	.	.	.	.	.	.
16B 16G#/	.	8bJ 8g#'</	.	.	.	.	.	.	.
16d/JJ	.	.	.	.	.	.	.	.	.
*	*Xtremolo	*	*	*	*	*	*	*	*
!LO:SIC:v:s=E#	!	!	!	!	!	!	!	!	!
*Xped	*	*	*	*	*	*	*	*	*
16G#/LL	8E\L	8bL 8g#'</	.	4r	.	.	4r	.	.
16B/	.	.	.	.	.	.	.	.	.
!LO:SIC:v:s=E#	!	!	!	!	!	!	!	!	!
16G#/	8E\	8g# 8e#X'</	.	.	.	.	.	.	.
16B/	.	.	.	.	.	.	.	.	.
!LO:SIC:v:s=E#	!	!	!	!	!	!LO:DY:a:rj	!	!	!LO:DY:a:rj
16G#/	8E\	8e# 8d/	.	8G#X 8E#X\	.	p	8d 8B\	O	p
16B/	.	.	.	.	.	.	.	.	.
!LO:SIC:v:s=E#	!	!	!	!	!	!	!	!	!
16G#/	8E\J	8dJ 8B/	.	8G# 8E#\	.	.	8d 8B\	ludz-	.
16B/JJ	.	.	.	.	.	.	.	.	.
*v	*v	*	*	*	*	*	*	*	*
=69	=69	=69	=69	=69	=69	=69	=69	=69
*	*tremolo	*	*	*	*	*	*	*
!	!	!LO:DY:b:rj	!	!	!	!	!	!
(<8EE#X/L	16dLL 16B/	p	4.G#X 4.E#X\	.	.	4.d 4.B\	-ko-	.
.	16G#/	.	.	.	.	.	.	.
8FF#/	16d 16B/	.	.	.	.	.	.	.
.	16G#/	.	.	.	.	.	.	.
8GG#/	16d 16B/	.	.	.	.	.	.	.
.	16G#/	.	.	.	.	.	.	.
8AA/J	16d 16B/	.	8G# 8E#\	.	.	8d 8B\	-ści	.
.	16G#/JJ	.	.	.	.	.	.	.
*	*rep	*	*	*	*	*	*	*
8AA#X/L	16dLL 16B/	.	4.G# 4.E#\	.	.	4.d 4.B\	nie-	.
.	16G#/	.	.	.	.	.	.	.
8BB/	16d 16B/	.	.	.	.	.	.	.
.	16G#/	.	.	.	.	.	.	.
8BB#X/	16d 16B/	.	.	.	.	.	.	.
.	16G#/	.	.	.	.	.	.	.
8C#/J	16d 16B/	.	8G# 8E#\	.	.	8d 8B\	-szczę-	.
.	16G#/JJ	.	.	.	.	.	.	.
*	*Xrep	*	*	*	*	*	*	*
=70	=70	=70	=70	=70	=70	=70	=70	=70
*	*	*	*	*	*	*^	*	*
8D/L	16dLL 16A/	.	2A 2F#\	.	.	2d/	2d\	-śli-	.
.	16F#/	.	.	.	.	.	.	.	.
8C#/	16d 16A/	.	.	.	.	.	.	.	.
.	16F#/	.	.	.	.	.	.	.	.
8Cn/	16d 16A/	.	.	.	.	.	.	.	.
.	16F#/	.	.	.	.	.	.	.	.
8BB/J	16d 16A/	.	.	.	.	.	.	.	.
.	16F#/JJ	.	.	.	.	.	.	.	.
*	*rep	*	*	*	*	*	*	*	*
8AA/L	16dLL 16A/	.	8A 8F#\	.	.	8d/	8A\	-wa!	.
.	16F#/	.	.	.	.	.	.	.	.
8GG#X/	16d 16A/	.	8r	.	.	8rc	8ryy	.	.
.	16F#/	.	.	.	.	.	.	.	.
8GGn/	16d 16A/	.	8A 8F#\	.	.	8d/	8A\	pro-	.
.	16F#/	.	.	.	.	.	.	.	.
8FF#/J	16d 16A/	.	8A 8F#\	.	.	8d/	8A\	-mień	.
.	16F#/JJ	.	.	.	.	.	.	.	.
*	*Xrep	*	*	*	*	*	*	*	*
!	!	!	!LO:TX:b:t=x	!	!	!	!	!	!
*	*	*	*	*	*	*v	*v	*	*
=71	=71	=71	=71	=71	=71	=71	=71	=71
8EE#X/L	16dLL 16B/	.	4.G#X 4.E#X\	.	.	4.d 4.B\	słoń-	.
.	16G#/	.	.	.	.	.	.	.
8FF#/	16d 16B/	.	.	.	.	.	.	.
.	16G#/	.	.	.	.	.	.	.
8GG#X/	16d 16B/	.	.	.	.	.	.	.
.	16G#/	.	.	.	.	.	.	.
8AA/J	16d 16B/	.	8G# 8E#\	.	.	8d 8B\	-ca	.
.	16G#/JJ	.	.	.	.	.	.	.
*	*rep	*	*	*	*	*	*	*
8AA#X/L	16dLL 16B/	.	4.G# 4.E#\	.	.	4.d 4.B\	skrył	.
.	16G#/	.	.	.	.	.	.	.
8BB/	16d 16B/	.	.	.	.	.	.	.
.	16G#/	.	.	.	.	.	.	.
8BB#X/	16d 16B/	.	.	.	.	.	.	.
.	16G#/	.	.	.	.	.	.	.
8C#/J	16d 16B/	.	8G# 8E#\	.	.	8d 8B\	się	.
.	16G#/JJ	.	.	.	.	.	.	.
*	*Xrep	*	*	*	*	*	*	*
!!LO:LB:g=original
=72	=72	=72	=72	=72	=72	=72	=72	=72
*	*	*	*	*	*	*^	*	*
8D/L	16dLL 16A/	.	2A 2F#\	.	.	2d/	2A\	bla-	.
.	16F#/	.	.	.	.	.	.	.	.
8C#/	16d 16A/	.	.	.	.	.	.	.	.
.	16F#/	.	.	.	.	.	.	.	.
8Cn/	16d 16A/	.	.	.	.	.	.	.	.
.	16F#/	.	.	.	.	.	.	.	.
8BB/J	16d 16A/	.	.	.	.	.	.	.	.
.	16F#/JJ	.	.	.	.	.	.	.	.
*	*rep	*	*	*	*	*	*	*	*
8BB-X/L	16dLL 16A/	.	8A 8F#\	.	.	8d/	8A\	-dy,	.
.	16F#/	.	.	.	.	.	.	.	.
8AA/	16d 16A/	.	8r	.	.	8rc	8ryy	.	.
.	16F#/	.	.	.	.	.	.	.	.
8GG#X/	16d 16A/	.	8A 8F#\	.	.	8d 8A\	4ryy	trze-	.
.	16F#/	.	.	.	.	.	.	.	.
8GGn/J)	16d 16A/	.	8A 8F#\	.	.	8e 8cn\	.	-szczą	.
.	16F#/JJ	.	.	.	.	.	.	.	.
*	*Xrep	*	*	*	*	*	*	*	*
*	*	*	*	*	*	*v	*v	*	*
=73	=73	=73	=73	=73	=73	=73	=73	=73
(<8FF#/L	16eLL 16cn/	.	4.A 4.F#\	.	.	4.e 4.cn\	zie-	.
.	16A/	.	.	.	.	.	.	.
8GGn/	16e 16c/	.	.	.	.	.	.	.
.	16A/	.	.	.	.	.	.	.
8AA/	16e 16c/	.	.	.	.	.	.	.
.	16A/	.	.	.	.	.	.	.
8BB/J	16e 16c/	.	8A 8F#\	.	.	8e 8c\	-mi	.
.	16A/JJ	.	.	.	.	.	.	.
*	*rep	*	*	*	*	*	*	*
8Cn\L	16eLL 16c/	.	4.A 4.F#\	.	.	4.e 4.c\	wskróś	.
.	16A/	.	.	.	.	.	.	.
8D\	16e 16c/	.	.	.	.	.	.	.
.	16A/	.	.	.	.	.	.	.
8E\	16e 16c/	.	.	.	.	.	.	.
.	16A/	.	.	.	.	.	.	.
8F#\J	16e 16c/	.	8A 8F#\	.	.	8e 8c\	po-	.
.	16A/JJ	.	.	.	.	.	.	.
!	!	!	!	!	!	!LO:TX:a:t=x	!	!
*	*Xrep	*	*	*	*	*	*	*
=74	=74	=74	=74	=74	=74	=74	=74	=74
*	*	*	*^	*	*	*	*	*
!	!LO:TX:a:t=(x):color=blue:rj	!	!	!	!	!	!	!	!
!LO:TX:b:t=78:color=grey	!LO:TX:t=P:problem:stem.color=blue	!	!	!	!	!	!	!	!
8Gn\L	16e@/LL	.	2Gn/	2Gn\	.	.	2e 2B\	-sa-	.
.	16B@/	.	.	.	.	.	.	.	.
8F#\	16e@/	.	.	.	.	.	.	.	.
.	16B@/	.	.	.	.	.	.	.	.
8E\	16e@/	.	.	.	.	.	.	.	.
.	16B@/	.	.	.	.	.	.	.	.
8D\J	16e@/	.	.	.	.	.	.	.	.
.	16B@/JJ	.	.	.	.	.	.	.	.
*	*Xtremolo	*	*	*	*	*	*	*	*
8Cn/L	16d/LL	.	8G/	8G\	.	.	8d 8B\	-dy,	.
.	16B/	.	.	.	.	.	.	.	.
8BB/	16d/	.	8r	8ryy	.	.	8r	.	.
.	16B/JJ	.	.	.	.	.	.	.	.
8AA/	16d/LL	.	8G/	8G\	.	.	8d 8B\	krwa-	.
.	16B/	.	.	.	.	.	.	.	.
8GGny/J)	16e/	.	8G/	8G\	.	.	8e 8B\	-wy,	.
.	16B/JJ	.	.	.	.	.	.	.	.
*	*	*	*v	*v	*	*	*	*	*
=75	=75	=75	=75	=75	=75	=75	=75	=75
*	*tremolo	*	*	*	*	*	*	*
(<8FF#/L	16eLL 16cn/	.	4.A 4.F#\	.	.	4.e 4.cn\	ob-	.
.	16A/	.	.	.	.	.	.	.
8GGn/	16e 16c/	.	.	.	.	.	.	.
.	16A/	.	.	.	.	.	.	.
8AA/	16e 16c/	.	.	.	.	.	.	.
.	16A/	.	.	.	.	.	.	.
8BB/J	16e 16c/	.	8A 8F#\	.	.	8e 8c\	-łok	.
.	16A/JJ	.	.	.	.	.	.	.
*	*rep	*	*	*	*	*	*	*
8Cn\L	16eLL 16c/	.	4.A 4.F#\	.	.	4.e 4.c\	z nie-	.
.	16A/	.	.	.	.	.	.	.
8D\	16e 16c/	.	.	.	.	.	.	.
.	16A/	.	.	.	.	.	.	.
8E\	16e 16c/	.	.	.	.	.	.	.
.	16A/	.	.	.	.	.	.	.
8F#\J	16e 16c/	.	8A 8F#\	.	.	8e 8c\	-ba	.
.	16A/JJ	.	.	.	.	.	.	.
*	*Xrep	*	*	*	*	*	*	*
=76	=76	=76	=76	=76	=76	=76	=76	=76
*	*	*	*^	*	*	*	*	*
!LO:TX:b:t=78:color=blue	!	!	!	!	!	!	!	!	!
8Gn\L	16e/LL	.	2Gn/	2Gn\	.	.	2e 2B\	spły-	.
.	16B/	.	.	.	.	.	.	.	.
8F#\	16e/	.	.	.	.	.	.	.	.
.	16B/	.	.	.	.	.	.	.	.
8E\	16e/	.	.	.	.	.	.	.	.
.	16B/	.	.	.	.	.	.	.	.
8D\J	16e/	.	.	.	.	.	.	.	.
.	16B/JJ	.	.	.	.	.	.	.	.
*	*Xtremolo	*	*	*	*	*	*	*	*
8Cn/L	16d/LL	.	8G/	8G\	.	.	8d 8B\	-wa,	.
.	16B/	.	.	.	.	.	.	.	.
8BB/	16d/	.	8r	8ryy	.	.	8r	.	.
.	16B/JJ	.	.	.	.	.	.	.	.
8AA/	16d/LL	.	8B\	4ryy	.	.	8d\	o	.
.	16B/	.	.	.	.	.	.	.	.
8GGn/J)	16f# 16d/	.	8B\	.	.	.	8f#\	ludz-	.
.	16B/JJ	.	.	.	.	.	.	.	.
*	*	*	*v	*v	*	*	*	*	*
!!LO:PB:g=original
=77	=77	=77	=77	=77	=77	=77	=77	=77
*	*tremolo	*	*	*	*	*	*	*
!	!	!	!	!	!LO:DY:a:rj	!LO:TX:a:t=x:rj	!	!LO:DY:a
8GG#X/L	16f#LL 16d/	.	4.F#\	.	f	4.f#\	-ko-	f
.	16B/	.	.	.	.	.	.	.
!	!	!LO:HP:b:t=crescendo.	!	!	!	!	!	!
8AA/	16f# 16d/	<	.	.	.	.	.	.
.	16B/	.	.	.	.	.	.	.
8BB/	16f# 16d/	.	.	.	.	.	.	.
.	16B/	.	.	.	.	.	.	.
8GG#/J	16f# 16d/	.	8F#\	.	.	8f#\	-ści	.
.	16B/JJ	.	.	.	.	.	.	.
8AA/L	16f#/LL	.	4.F#\	.	.	4.f#\	nie-	.
.	16c#/	.	.	.	.	.	.	.
8BB/	16f#/	.	.	.	.	.	.	.
.	16c#/	.	.	.	.	.	.	.
8C#/	16f#/	.	.	.	.	.	.	.
.	16c#/	.	.	.	.	.	.	.
8AA/J	16f#/	.	8F#\	.	.	8a@ 8f#\	-szczę-	.
.	16c#/JJ	.	.	.	.	.	.	.
=78	=78	=78	=78	=78	=78	=78	=78	=78
8BB/L	16f#LL 16d/	.	2A^>\	.	.	2a 2A^>\	-śli-	.
.	16B/	.	.	.	.	.	.	.
8C#/	16f# 16d/	.	.	.	.	.	.	.
.	16B/	.	.	.	.	.	.	.
8D/	16f# 16d/	.	.	.	.	.	.	.
.	16B/	.	.	.	.	.	.	.
8BB/J	16f# 16d/	.	.	.	.	.	.	.
.	16B/JJ	.	.	.	.	.	.	.
8BB#X/L	16f#/LL	.	4F#\	.	.	4f# 4F#\	-wa!	.
.	16A/	.	.	.	.	.	.	.
8C#/	16f#/	.	.	.	.	.	.	.
.	16A/	.	.	.	.	.	.	.
8D#X/	16f#/	.	8.r	.	.	8.r	.	.
.	16A/	.	.	.	.	.	.	.
8BB#/J	16f#/	.	.	.	.	.	.	.
!	!	!	!	!	!LO:DY:a:rj	!	!	!LO:DY:a:rj
.	16A/JJ	.	16A\	.	ff	16f#\	to	ff
*	*Xtremolo	*	*	*	*	*	*	*
=79	=79	=79	=79	=79	=79	=79	=79	=79
*^	*	*	*	*	*	*	*	*
8C#/L	1CC#	2f# 2c# 2A/	.	2A\	.	.	2f#\	Sy-	.
16r	.	.	.	.	.	.	.	.	.
16C#/Jk	.	.	.	.	.	.	.	.	.
*rep	*	*	*	*	*	*	*	*	*
8C#/L	.	.	.	.	.	.	.	.	.
16r	.	.	.	.	.	.	.	.	.
16C#/Jk	.	.	.	.	.	.	.	.	.
*Xrep	*	*	*	*	*	*	*	*	*
*rep	*	*	*	*	*	*	*	*	*
8C#/L	.	4..e#X 4..c# 4..G#/	.	4G#\	.	.	4e#X\	-wa!	.
16r	.	.	.	.	.	.	.	.	.
16C#/Jk	.	.	.	.	.	.	.	.	.
*Xrep	*	*	*	*	*	*	*	*	*
*rep	*	*	*	*	*	*	*	*	*
8C#/L	.	.	.	8.r	.	.	8.r	.	.
16r	.	.	.	.	.	.	.	.	.
16C#/Jk	.	16en 16B 16Gn/	.	16Gn\	.	.	16en\	to	.
*Xrep	*	*	*	*	*	*	*	*	*
!	!	!	!	!	!	!	!LO:TX:a:t=x	!	!
=80	=80	=80	=80	=80	=80	=80	=80	=80	=80
!	!	!	!	!LO:SIC:v:s=Gn	!	!	!	!	!
*rep	*rep	*	*	*	*	*	*	*	*
8C#/L	1CC#	2e 2B 2Gn/	.	2G#\	.	.	2e\	Sy-	.
16r	.	.	.	.	.	.	.	.	.
16C#/Jk	.	.	.	.	.	.	.	.	.
8C#/L	.	.	.	.	.	.	.	.	.
16r	.	.	.	.	.	.	.	.	.
16C#/Jk	.	.	.	.	.	.	.	.	.
!	!	!LO:TX:B:a:t=80:color=red	!	!	!	!	!	!	!
8C#/L	.	4.d#X 4.B 4.F#</	.	8F#\	.	.	8d#X\	-wa!	.
16r	.	.	.	8r	.	.	8r	.	.
16C#/Jk	.	.	.	.	.	.	.	.	.
8C#/L	.	.	.	8F#\	.	.	8B\	pa-	.
16r	.	8c#/	.	8F#\	.	.	8c#\	-dnij	.
16C#/Jk	.	.	.	.	.	.	.	.	.
*Xrep	*Xrep	*	*	*	*	*	*	*	*
=81	=81	=81	=81	=81	=81	=81	=81	=81	=81
*rep	*rep	*	*	*	*	*	*	*	*
8C#/L	1CC#	4dn 4B 4F#</	.	4.B\	.	.	4.dn\	czo-	.
16r	.	.	.	.	.	.	.	.	.
16C#/Jk	.	.	.	.	.	.	.	.	.
8C#/L	.	8.dL 8.B 8.F#</	.	.	.	.	.	.	.
16r	.	.	.	8B\	.	.	8d\	-łem	.
16C#/Jk	.	16dJk 16B 16F#</	.	.	.	.	.	.	.
8C#/L	.	4f# 4d 4B/	.	4.d\	.	.	4.f#\	w proch	.
16r	.	.	.	.	.	.	.	.	.
16C#/Jk	.	.	.	.	.	.	.	.	.
8C#/L	.	4f# 4d 4B/	.	.	.	.	.	.	.
16r	.	.	.	8B\	.	.	8d\	sko-	.
16C#/Jk	.	.	.	.	.	.	.	.	.
*Xrep	*Xrep	*	*	*	*	*	*	*	*
!!LO:LB:g=original
=82	=82	=82	=82	=82	=82	=82	=82	=82	=82
*rep	*rep	*	*	*	*	*	*	*	*
8C#/L	1CC#	2a 2f# 2A/	.	2A\	.	.	2c#\	-rzo-	.
16r	.	.	.	.	.	.	.	.	.
16C#/Jk	.	.	.	.	.	.	.	.	.
8C#/L	.	.	.	.	.	.	.	.	.
16r	.	.	.	.	.	.	.	.	.
16C#/Jk	.	.	.	.	.	.	.	.	.
!	!	!	!LO:HP:b	!	!	!	!	!	!
8C#/L	.	8f#L 8A/	<	4F#\	.	.	4A/	-nem!	.
*	*	*	*	*	*	*	*	*below	*
16r	.	8a 8f# 8c#/	.	.	.	.	.	.	.
16C#/Jk	.	.	.	.	.	.	.	.	.
8C#/L	.	8cc# 8a 8f#/	.	4r	.	.	4r	.	.
16r	.	8ff#J 8cc# 8a/	[[	.	.	.	.	.	.
16C#/Jk	.	.	.	.	.	.	.	.	.
*Xrep	*Xrep	*	*	*	*	*	*	*	*
*v	*v	*	*	*	*	*	*	*	*
!!LO:LB:g=original
=83	=83	=83	=83	=83	=83	=83	=83	=83
!	!	!LO:DY:b	!	!	!	!	!	!
8.DL 8.DD/	4..aa 4..ff# 4..a\	f	4..d\	bo	.	4..d\	.	.
16DJk 16DD/	.	.	.	.	.	.	.	.
*rep	*	*	*	*	*	*	*	*
8.DL 8.DD/	.	.	.	.	.	.	.	.
16DJk 16DD/	16ff# 16dd\	.	16F#\	z pie-	.	16A/	.	.
*Xrep	*	*	*	*	*	*	*	*
*rep	*	*	*	*	*	*	*	*
!	!	!	!	!	!LO:HP:a	!	!	!LO:HP:a
8.DL 8.DD/	8.ggnL 8.ee 8.b\	.	8.Gn\	-kiel-	<	8.B\	.	<
!	!LO:N:vis=8	!	!	!	!	!	!	!
16DJk 16DD/	16aaK 16ff# 16cc# 16a\	.	16A\	-nym	.	16c#\	.	.
*Xrep	*	*	*	*	*	*	*	*
*rep	*	*	*	*	*	*	*	*
8.DL 8.DD/	8.bb 8.gg 8.dd 8.b\	.	8.B\	swo-	.	8.d\	.	.
!	!LO:N:vis=8	!	!	!	!	!	!	!
16DJk 16DD/	16ccc#Jk 16gg 16ee 16cc#\	.	16c#\	-im	[	16e\	.	[
*Xrep	*	*	*	*	*	*	*	*
=84	=84	=84	=84	=84	=84	=84	=84	=84
!LO:TX:b:t=74:color=blue	!	!	!	!	!	!	!	!
8.DL 8.DD/	2ddd 2ff# 2dd\	.	2d\	gro-	.	2f#\	.	.
16AK 16F# 16D/	.	.	.	.	.	.	.	.
8.A 8.F# 8.D/	.	.	.	.	.	.	.	.
16DJk 16DD/	.	.	.	.	.	.	.	.
!LO:TX:t=P:problem:mixed beam	!	!	!	!	!	!	!	!
8.GG#X/L	4..bb 4..ff# 4..dd\	.	8B\	-mem	.	8d\	.	.
.	.	.	8r	.	.	8r	.	.
16B\Jk 16F#\ 16D\	.	.	.	.	.	.	.	.
!LO:TX:t=P:problem:mixed beam	!	!	!	!	!	!	!	!
8.BL 8.F# 8.D\	.	.	8.B\	.	.	8.d\	już	.
16GG#/Jk	16bb 16ff# 16dd\	.	16B\	.	.	16d\	przy-	.
!!LO:PB:g=original
=85	=85	=85	=85	=85	=85	=85	=85	=85
8.C#L 8.CC#/	4aa 4ff# 4cc#\	.	4.A\	.	.	4.c#\	-by-	.
16C#/Jk	.	.	.	.	.	.	.	.
*rep	*	*	*	*	*	*	*	*
8.C#/L	8ff#L 8cc# 8a/	.	.	.	.	.	.	.
.	8cc#J 8a 8f#/	.	8F#\	.	.	8A/	-wa,	.
16C#/Jk	.	.	.	.	.	.	.	.
*Xrep	*	*	*	*	*	*	*	*
*rep	*	*	*	*	*	*	*	*
8.C#/L	4a 4f# 4c#/	.	4.C#/	.	.	4.c#\	wi-	.
16C#/Jk	.	.	.	.	.	.	.	.
*Xrep	*	*	*	*	*	*	*	*
*rep	*	*	*	*	*	*	*	*
8.C#/L	4g# 4e#X 4B/	.	.	.	.	.	.	.
.	.	.	8C#/	.	.	8c#\	-dz	.
16C#/Jk	.	.	.	.	.	.	.	.
*Xrep	*	*	*	*	*	*	*	*
!	!	!	!	!	!	!LO:TX:a:t=x	!	!
=86	=86	=86	=86	=86	=86	=86	=86	=86
8C# 8FF#/	8f# 8A/	.	4F#\	.	.	4F#/	go.	.
16r	16r	.	.	.	.	.	.	.
16F#\KL	16ff#KL 16f#\	.	.	.	.	.	.	.
8.F#\	8.ff# 8.f#\	.	4r	.	.	4r	.	.
16F#\Jk	16ff#Jk 16f#\	.	.	.	.	.	.	.
8.F#\L	8.ff#L 8.f#\	.	4r@	.	.	4r@	.	.
16F#\K	16ff#K 16f#\	.	.	.	.	.	.	.
!	!	!	!LO:N:vis=8	!	!	!	!	!
8.F#\	8.ff# 8.f#\	.	8.r@	.	.	8.r@	.	.
16F#Jk 16C# 16FF#\	16ff#Jk 16cc# 16a 16f#\	.	16F#\	.	.	16f# 16c#\	Do	.
=87	=87	=87	=87	=87	=87	=87	=87	=87
*^	*^	*	*	*	*	*	*	*
!	!	!LO:TX:B:b:t=G=:color=red	!	!	!	!	!	!	!	!
8.F#/Lyy	4..Dyy 4..BB\yy	4..ff#yy 4..dd^^>/yy	8.byy 8.f#\Lyy	.	4..B\	.	.	4..f# 4..d\	świę-	.
16F#/Kyy	.	.	16f#\Kyy	.	.	.	.	.	.	.
8.F#/yy	.	.	8.f#\yy	.	.	.	.	.	.	.
16F#/Jkyy	16C#yy 16FF#\yy	16ff#yy 16cc#yy 16a/yy	16f#\Jkyy	.	16F#\	.	.	16f# 16c#\	-tych	.
8.F#/Lyy	4..Dyy 4..BB\yy	4..ff#yy 4..ddyy 4..b^^>/yy	8.f#\Lyy	.	4..B\	.	.	4..f# 4..d\	bo-	.
16F#/Kyy	.	.	16f#\Kyy	.	.	.	.	.	.	.
8.F#/yy	.	.	8.f#\yy	.	.	.	.	.	.	.
16F#/Jkyy	16C#yy 16FF#\yy	16ff#yy 16cc#yy 16a/yy	16f#\Jkyy	.	16F#\	.	.	16f# 16c#\	-rów	.
*v	*v	*	*	*	*	*	*	*	*	*
=88	=88	=88	=88	=88	=88	=88	=88	=88	=88
8.F#/Lyy	[>2.ff#yy [>2.ddyy [>2.b/yy	8.f#\Lyy	.	4B\	.	.	4f# 4d\	dąż,	.
16F#/Kyy	.	16f#\Kyy	.	.	.	.	.	.	.
8.F#/yy	.	8.f#\yy	.	4r	.	.	4r	.	.
16F#/Jkyy	.	16f#\Jkyy	.	.	.	.	.	.	.
8.F#/Lyy	.	8.f#\Lyy	.	4r@	.	.	4r@	.	.
!	!	!LO:N:vis=8	!	!	!	!	!	!	!
16F#/Kyy	.	16f#\Kyy	.	.	.	.	.	.	.
8.F#/yy	8ff#]yy 8dd]yy 8b/]yy	8f#\yy	.	8.r@	.	.	8.r@	.	.
.	8ryy	16ryy	.	.	.	.	.	.	.
!	!	!LO:N:vis=8	!	!	!	!	!	!	!
16F#/Jkyy	.	16aaJkyy 16ff#yy 16cc#yy 16a\yy	.	16A\	.	.	16f# 16c#\	łań-	.
!	!	!	!	!	!	!	!LO:TX:a:t=x	!	!
=89	=89	=89	=89	=89	=89	=89	=89	=89	=89
8.F#/Lyy	4..aayy 4..ff#yy 4..dd/yy	8.a\Lyy	.	4..d\	.	.	4..f# 4..d\	-cu-	.
16F#/Kyy	.	16a\Jkyy	.	.	.	.	.	.	.
8.F#/yy	.	8.a\Lyy	.	.	.	.	.	.	.
16F#/Jkyy	16aayy 16ff#yy 16cc#/yy	16a\Jkyy	.	16A\	.	.	16f# 16c#\	-chem	.
8.F#/Lyy	4..aayy 4..ff#yy 4..dd/yy	8.a\Lyy	.	4..d\	.	.	4..f# 4..d\	dło-	.
16F#/Kyy	.	16a\Kyy	.	.	.	.	.	.	.
8.F#/yy	.	8.a\yy	.	.	.	.	.	.	.
16F#/Jkyy	16aayy 16ff#yy 16cc#/yy	16a\Jkyy	.	16A\	.	.	16f# 16c#\	-nie	.
*	*v	*v	*	*	*	*	*	*	*
!!LO:LB:g=original
=90	=90	=90	=90	=90	=90	=90	=90	=90
8.F#Lyy 8.D\yy	8.aaLyy 8.ff#yy 8.ddyy 8.a/yy	.	2d\	.	.	2a 2f#\	wiąż.	.
16AJkyy 16F#yy 16D\yy	16ff#Jkyy 16ddyy 16a/yy	.	.	.	.	.	.	.
!	!LO:TX:a:t=P:problem:brak główek	!	!	!	!	!	!	!
8.ALyy 8.F#yy 8.D\yy	8.ff#Lyy 8.ddyy 8.a/yy	.	.	.	.	.	.	.
16AJkyy 16F#yy 16D\yy	16ddJkyy 16ayy 16f#/yy	.	.	.	.	.	.	.
*rep	*	*	*	*	*	*	*	*
!	!LO:TX:a:t=P:problem:brak główek	!	!	!	!	!	!	!
8.ALyy 8.F#yy 8.D\yy	8.ddLyy 8.ayy 8.f#/yy	.	2r	.	.	2r	.	.
16AJkyy 16F# 16D\yy	16aJkyy 16f#yy 16d/yy	.	.	.	.	.	.	.
*Xrep	*	*	*	*	*	*	*	*
!	!LO:TX:a:t=P:problem:brak główek	!	!	!	!	!	!	!
8.ALyy 8.F#yy 8.D\yy	8.aLyy 8.f#yy 8.d/yy	.	.	.	.	.	.	.
16GnJkyy yy16GGn\yy	16bJkyy 16g#yy 16d/yy	.	.	.	.	.	.	.
=91	=91	=91	=91	=91	=91	=91	=91	=91
!	!LO:SIC:v:s=gn	!	!	!	!	!	!	!
8Gnyy 8GGn/yy	8.bLyy 8.g#yy 8.d/yy	.	8.B\	.	.	8.B/	Niechć	.
8ryy	.	.	.	.	.	.	.	.
.	16d/Jkyy	.	16B\	.	.	16B/	.	.
!	!LO:SIC:v:s=gn	!	!	!	!	!	!	!
8D/yy	8.g#Lyy 8.dyy 8.B/yy	.	8.Gn\	.	.	8.Gn/	ser-	.
8ryy	.	.	.	.	.	.	.	.
!	!LO:SIC:v:s=gn	!	!	!	!	!	!	!
!	!LO:TX:a:t=P:problem:brak główek	!	!	!	!	!	!	!
.	16g#Jkyy 16dyy 16B/yy	.	16G\	.	.	16G/	-ce	.
!	!LO:SIC:v:s=gn	!	!	!	!	!	!	!
8BB/yy	8.bLyy 8.g#yy 8.d/yy	.	4B\	.	.	4B\	ką-	.
8ryy	.	.	.	.	.	.	.	.
.	16d/Jkyy	.	.	.	.	.	.	.
!	!LO:SIC:v:s=gn	!	!	!	!	!	!	!
8GG/yy	8.ddLyy 8.byy 8.g#/yy	.	4G\	.	.	4d\	-sa	.
8ryy	.	.	.	.	.	.	.	.
.	16d/Jkyy	.	.	.	.	.	.	.
!	!	!	!	!	!	!LO:TX:a:t=x	!	!
=92	=92	=92	=92	=92	=92	=92	=92	=92
!LO:TX:b:t=75:color=blue	!	!	!	!	!	!	!	!
!LO:TX:b:t=80:color=grey	!	!	!	!	!	!	!	!
8D\yy	8.ddLyy 8.ayy 8.f#/yy	.	2.F# 2.D^>\	.	.	2.d 2.A^>\	wąż,	.
8ryy	.	.	.	.	.	.	.	.
.	16dJkyy 16A<yy 16F#</yy	.	.	.	.	.	.	.
8AA\yy	8.dLyy 8.A<yy 8.F#</yy	.	.	.	.	.	.	.
8ryy	.	.	.	.	.	.	.	.
.	16f#Jkyy 16dyy 16A</yy	.	.	.	.	.	.	.
8F#yy 8FF#\yy	8.f#Lyy 8.dyy 8.A</yy	.	.	.	.	.	.	.
8ryy	.	.	.	.	.	.	.	.
.	16aJkyy 16dyy 16A</yy	.	.	.	.	.	.	.
8Dyy 8DD/yy	8.aLyy 8.f#yy 8.d/yy	.	4F# 4D\	.	.	4A/	krwią	.
8ryy	.	.	.	.	.	.	.	.
.	16aJkyy 16f#yy 16d/yy	.	.	.	.	.	.	.
=93	=93	=93	=93	=93	=93	=93	=93	=93
8Gnyy 8GGn\yy	8.bLyy 8.gnyy 8.d/yy	.	4Gn\	.	.	4B/	om-	.
8ryy	.	.	.	.	.	.	.	.
.	16dJkyy 16B/yy	.	.	.	.	.	.	.
8D\yy	8.gLyy 8.dyy 8.B/yy	.	8.G\	.	.	8.Gn/	-rocz	.
8ryy	.	.	.	.	.	.	.	.
.	16gJkyy 16dyy 16B/yy	.	16G\	.	.	16G/	zie-	.
8Byy 8BB\yy	8.bLyy 8.gyy 8.d/yy	.	4G\	.	.	4B\	-lo-	.
8ryy	.	.	.	.	.	.	.	.
.	16bJkyy 16gyy 16d/yy	.	.	.	.	.	.	.
8Gnyy 8GGn\yy	8.ddLyy 8.byy 8.gyy 8.d/yy	.	4G\	.	.	4d 4B\	-ny	.
8ryy	.	.	.	.	.	.	.	.
.	16ddJkyy 16byy 16g/yy	.	.	.	.	.	.	.
=94	=94	=94	=94	=94	=94	=94	=94	=94
!	!	!	!LO:SIC:v:s=Gn	!	!	!	!	!
8.GnLyy 8.Eyy 8.Cn\yy	4eeyy 4ccnyy 4gnyy 4e/yy	.	2G# 2Cn\	.	.	2e 2cn\	smug!	.
16EJkyy 16C\yy	.	.	.	.	.	.	.	.
8.ELyy 8.C\yy	4ryy	.	.	.	.	.	.	.
16EJkyy 16C\yy	.	.	.	.	.	.	.	.
*rep	*	*	*	*	*	*	*	*
8.ELyy 8.C\yy	4..gnyy 4..cnyy 4..Gn/yy	.	2r	.	.	2r	.	.
16EJkyy 16C\yy	.	.	.	.	.	.	.	.
*Xrep	*	*	*	*	*	*	*	*
*rep	*	*	*	*	*	*	*	*
8.ELyy 8.C\yy	.	.	.	.	.	.	.	.
!	!LO:TX:B:b:t==H:color=red	!	!	!	!	!	!	!
16EJkyy 16C\yy	16gyy 16cyy 16G/yy	.	.	.	.	.	.	.
*Xrep	*	*	*	*	*	*	*	*
!!LO:LB:g=original
=95	=95	=95	=95	=95	=95	=95	=95	=95
*	*	*	*	*	*	*	*above	*
!	!	!	!LO:TX:B:b:t=X = Z:color=red	!	!	!	!	!
!	!	!	!LO:TX:B:b:t=pag 3.:color=blue	!	!	!	!	!
8.GnLyy 8.E\yy	4..ccnyy 4..gnyy 4..cn/yy	.	4..cn^>\yy	.	.	4..cn^>\yy	wo-	.
16GJkyy 16E\yy	.	.	.	.	.	.	.	.
*rep	*	*	*	*	*	*	*	*
8.GLyy 8.E\yy	.	.	.	.	.	.	.	.
16GJkyy 16E\yy	16g/yy	.	16Gn\yy	.	.	16Gn/yy	-nią	.
*Xrep	*	*	*	*	*	*	*	*
*rep	*	*	*	*	*	*	*	*
8.GLyy 8.E\yy	8.e/Lyy	.	8.E\yy	.	.	8.E/yy	zio-	.
16GJkyy 16E\yy	16c/Kyy	.	16Cn\yy	.	.	16Cn/yy	-nie	.
*Xrep	*	*	*	*	*	*	*	*
*rep	*	*	*	*	*	*	*	*
8.GLyy 8.E\yy	8.e/yy	.	8.E\yy	.	.	8.E/yy	w dal	.
16GJkyy 16E\yy	16g/Jkyy	.	16G\yy	.	.	16G/yy	gro-	.
*Xrep	*	*	*	*	*	*	*	*
=96	=96	=96	=96	=96	=96	=96	=96	=96
8.GnLyy 8.E\yy	4ccn/yy	.	2.cn\yy	.	.	2.cn\yy	-bo-	.
16E\Jkyy	.	.	.	.	.	.	.	.
8.E\Lyy	8.gnLyy 8.cnyy 8.Gn/yy	.	.	.	.	.	.	.
!	!LO:TX:a:t=P:problem:brak główek	!	!	!	!	!	!	!
16E\Jkyy	16gJkyy 16cyy 16G/yy	.	.	.	.	.	.	.
*rep	*	*	*	*	*	*	*	*
!	!LO:TX:a:t=P:problem:brak główek	!	!	!	!	!	!	!
8.E\Lyy	4gyy 4cyy 4G/yy	.	.	.	.	.	.	.
16E\Jkyy	.	.	.	.	.	.	.	.
*Xrep	*	*	*	*	*	*	*	*
*rep	*	*	*	*	*	*	*	*
!	!LO:TX:a:t=P:problem:brak główek	!	!	!	!	!	!	!
8.E\Lyy	4gyy 4cyy 4G/yy	.	4c\yy	.	.	4c\yy	-wą	.
16E\Jkyy	.	.	.	.	.	.	.	.
*Xrep	*	*	*	*	*	*	*	*
!!LO:PB:g=original
=97	=97	=97	=97	=97	=97	=97	=97	=97
8.GnLyy 8.Eyy 8.AA\yy	4..cc#X^<yy 4..gnyy 4..eyy 4..c#X/yy	.	4..c#X\yy	.	.	4..c#X^>\yy	Błysk	.
16GJkyy 16E\yy	.	.	.	.	.	.	.	.
8.GLyy 8.E\yy	.	.	.	.	.	.	.	.
16GJkyy 16E\yy	16a/yy	.	16A\yy	.	.	16A/yy	mu	.
*rep	*	*	*	*	*	*	*	*
8.GLyy 8.E\yy	8.e/Lyy	.	8.E\yy	.	.	8.E/yy	wzro-	.
16GJkyy 16E\yy	16c#/Kyy	.	16C#\yy	.	.	16C#/yy	-kiem,	.
*Xrep	*	*	*	*	*	*	*	*
*rep	*	*	*	*	*	*	*	*
8.GLyy 8.E\yy	8.e/yy	.	8.E\yy	.	.	8.E/yy	grom	.
16GJkyy 16E\yy	16a/Jkyy	.	16A\yy	.	.	16A/yy	mu	.
*Xrep	*	*	*	*	*	*	*	*
=98	=98	=98	=98	=98	=98	=98	=98	=98
8.GnLyy 8.E\yy	8.cc#XLyy 8.eyy 8.c#X/yy	.	2c#\yy	.	.	2c#X\yy	mo-	.
16GJkyy 16E\yy	16gnJkyy 16e/yy	.	.	.	.	.	.	.
*rep	*	*	*	*	*	*	*	*
8.GLyy 8.E\yy	8.gLyy 8.e/yy	.	.	.	.	.	.	.
16GJkyy 16E\yy	16gJkyy 16e/yy	.	.	.	.	.	.	.
*Xrep	*	*	*	*	*	*	*	*
8.ELyy 8.AA/yy	8.e/Lyy	.	4c#\yy	.	.	4c#\yy	-wą.	.
16AKyy 16AA/yy	16a/Kyy	.	.	.	.	.	.	.
8AJyy 8AA/yy	8a/Jyy	.	8.ryyyy	.	.	8.ryy	.	.
!	!	!LO:DY:b	!	!	!	!	!	!
16ryy	16ryy	ff	.	.	.	.	.	.
!	!	!	!	!	!LO:DY:a:rj	!	!	!LO:DY:a:rj
16Dyy 16DD/yy	16ddyy 16ayy 16fnyy 16d/yy	.	16d\yy	.	ff	16d\yy	To	ff
=99	=99	=99	=99	=99	=99	=99	=99	=99
8Dyy 8DD/yy	(>2ddyy 2ayy 2fnyy 2dyy/	.	2d^>\yy	.	.	2d^>\yy	Sy-	.
16ryy	.	.	.	.	.	.	.	.
16Ayy 16Fnyy 16D\yy	.	.	.	.	.	.	.	.
8.ALyy 8.Fyy 8.D\yy	.	.	.	.	.	.	.	.
16AJkyy 16AA\yy	.	.	.	.	.	.	.	.
8.ALyy 8.AA\yy	4..cc#yy 4..ayy 4..eyy/)	.	4c#\yy	.	.	4c#\yy	-wa!	.
16AKyy 16E\yy	.	.	.	.	.	.	.	.
8AJyy 8E\yy	.	.	8.ryy	.	.	8.ryy	.	.
16ryy	.	.	.	.	.	.	.	.
!	!	!LO:DY:b	!	!	!	!	!	!
16Cnyy 16CCn/yy	16eeyy 16ccnyy 16gnyy 16eyy/	ff	16cn\yy	.	.	16e\yy	to	.
=100	=100	=100	=100	=100	=100	=100	=100	=100
8Cnyy 8CCn/yy	(>2eeyy 2ccnyy 2gnyy 2eyy/	.	2cn^>\yy	.	.	2e^>\yy	Sy-	.
16ryy	.	.	.	.	.	.	.	.
16cnKLyy 16Gnyy 16E\yy	.	.	.	.	.	.	.	.
8.cyy 8.Gyy 8.E\yy	.	.	.	.	.	.	.	.
16cJkyy 16C\yy	.	.	.	.	.	.	.	.
8.BLyy 8.BB\yy	4dd#Xyy 4byy 4f#yy/)	.	4B\yy	.	.	4d#X\yy	-wa!	.
16BKyy 16F#\yy	.	.	.	.	.	.	.	.
8BJyy 8F#\yy	8.ryy	.	8.ryy	.	.	8.ryy	.	.
16ryy	.	.	.	.	.	.	.	.
!	!	!LO:DY:b=2:rj	!	!	!	!	!	!
16Ayy 16AA/yy	16ff#yy 16dd#Xyy 16ayy/	ff	16A\yy	to	.	16f#\yy	to	.
=101	=101	=101	=101	=101	=101	=101	=101	=101
*	*^	*	*	*	*	*	*	*
!	!	!	!LO:DY:b:t=sff:color=black:rj	!	!	!	!	!	!
8.Ayy 8.AA/yy	1ff#yy 1dd#Xyy	2a\yy	sf	2A^>\yy	Sy-	.	[>1f#^>yy	pię-	.
16cnyy 16A\yy	.	.	.	.	.	.	.	.	.
8.cyy 8.A\yy	.	.	.	.	.	.	.	.	.
16Ayy 16AA/yy	.	.	.	.	.	.	.	.	.
!	!	!	!	!LO:ACC:color=blue	!	!	!	!	!
8.G#XLyy 8.GG#X/yy	.	4b\yy	.	4G#X\yy	-wa,	.	.	.	.
16G#Jkyy 16GG#/yy	.	.	.	.	.	.	.	.	.
8.F#Lyy 8.FF#/yy	.	4b#X\yy	.	4F#\yy	to	.	.	.	.
16F#Jkyy 16FF#/yy	.	.	.	.	.	.	.	.	.
*	*v	*v	*	*	*	*	*	*	*
!!LO:LB:g=original
=102	=102	=102	=102	=102	=102	=102	=102	=102
8.C#\Lyy	4cc#/yy	.	4..c#\yy	pię-	.	4..f#\]yy	.	.
16AJkyy 16F#\yy	.	.	.	.	.	.	.	.
8.ALyy 8.F#\yy	8.cc#Lyy 8.ayy 8.f#/yy	.	.	.	.	.	.	.
16C#\Jkyy	16cc#Jkyy 16ayy 16f#/yy	.	16c#\yy	-cio-	.	16c#\yy	-cio-	.
8.C#\Lyy	4cc#yy 4g#yy 4f#/yy	.	4c#\yy	-gło-	.	4c#\yy	-gło-	.
16c#Jkyy 16G#\yy	.	.	.	.	.	.	.	.
8.c#Lyy 8.G#\yy	4cc#yy 4g#yy 4e#X/yy	.	4c#\yy	-wy	.	4c#\yy	-wy	.
16C#\Jkyy	.	.	.	.	.	.	.	.
=103	=103	=103	=103	=103	=103	=103	=103	=103
8.F#L 8.C# 8.FF#/	8.ff#L 8.a 8.f#\	.	[>1A [>1F#	.	.	[>1f# [>1c#	Bóg.	.
!LO:TX:a:t=P:problem:brak główek	!LO:TX:a:t=P:problem:brak główek	!	!	!	!	!	!	!
16F#K 16C# 16FF#/	16ff#K 16a 16f#\	.	.	.	.	.	.	.
!LO:TX:a:t=P:problem:brak główek	!LO:TX:a:t=P:problem:brak główek	!	!	!	!	!	!	!
8.F# 8.C# 8.FF#/	8.ff# 8.a 8.f#\	.	.	.	.	.	.	.
!LO:TX:a:t=P:problem:brak główek	!LO:TX:a:t=P:problem:brak główek	!	!	!	!	!	!	!
16F#Jk 16C# 16FF#/	16ff#Jk 16a 16f#\	.	.	.	.	.	.	.
!LO:TX:a:t=P:problem:brak główek	!	!	!	!	!	!	!	!
8.F#L 8.C# 8.FF#/	8.ff#L 8.a 8.f#/	.	.	.	.	.	.	.
!LO:TX:a:t=P:problem:brak główek	!	!	!	!	!	!	!	!
16F#K 16C# 16FF#/	16cc#Jk 16a 16f#/	.	.	.	.	.	.	.
!LO:TX:a:t=P:problem:brak główek	!LO:TX:a:t=P:problem:brak główek	!	!	!	!	!	!	!
8.F# 8.C# 8.FF#/	8.cc#L 8.a 8.f#/	.	.	.	.	.	.	.
!LO:TX:a:t=P:problem:brak główek	!	!	!	!	!	!	!	!
16F#Jk 16C# 16FF#/	16cc#Jk 16a 16f#/	.	.	.	.	.	.	.
=104	=104	=104	=104	=104	=104	=104	=104	=104
*rep	*	*	*	*	*	*	*	*
8.F#L 8.C# 8.FF#/	8.cc#L 8.a 8.f#/	.	1A_> 1F#_>	.	.	1f#_> 1c#_>	.	.
16F#K 16C# 16FF#/	16aJk 16f# 16c#/	.	.	.	.	.	.	.
8.F# 8.C# 8.FF#/	8.aL 8.f# 8.c#/	.	.	.	.	.	.	.
16F#Jk 16C# 16FF#/	16f#Jk 16c# 16A</	.	.	.	.	.	.	.
8.F#L 8.C# 8.FF#/	8.f#L 8.c# 8.A</	.	.	.	.	.	.	.
16F#K 16C# 16FF#/	16c#Jk 16A</	.	.	.	.	.	.	.
8.F# 8.C# 8.FF#/	8.c#L 8.A</	.	.	.	.	.	.	.
16F#Jk 16C# 16FF#/	16aJk 16f# 16c#/	.	.	.	.	.	.	.
*Xrep	*	*	*	*	*	*	*	*
=105	=105	=105	=105	=105	=105	=105	=105	=105
2F# 2C# 2FF#^^>\	2a 2f# 2c#^^>/	.	4A] 4F#\]	.	.	4f#] 4c#\]	.	.
*	*	*	*	*	*	*X8ba	*	*
.	.	.	4r	.	.	4r	.	.
2BB#X 2BBB#X^^>/	2a 2f# 2d#X 2A^^>/	.	2r	.	.	2r	.	.
=106	=106	=106	=106	=106	=106	=106	=106	=106
2C# 2CC#^^>/	2a 2f# 2c# 2A^^>/	.	1ryy	.	.	1r	.	.
!	!	!	!	!	!	!LO:TX:a:B:t=110:color=red	!	!
2AA 2AAA^^>\	2f# 2B#X 2F#<^^>/	.	.	.	.	.	.	.
=107	=107	=107	=107	=107	=107	=107	=107	=107
*8ba	*	*	*	*	*	*	*	*
!LO:TX:b:t=8	!	!	!	!	!	!	!	!
!LO:TX:b:t=P:problem:fermata bezpośrednio nad 1FFF#	!	!	!	!	!	!	!	!
1FFF#;>	1f# 1c# 1A<;>	.	1r;>	.	.	1r;>	.	.
*X8ba	*	*	*	*	*	*	*	*
==	==	==	==	==	==	==	==	==
*-	*-	*-	*-	*-	*-	*-	*-	*-
!!!system-decoration: [s1,s2{(s3,s4)}]
!!!RDF**kern: @ = marked note, color=blue
!!!RDF**kern: > = above
!!!RDF**kern: < = below
!!!ENC: Marcin Jachim
!!!END: 2021-08-24
!!!ENC: Antoni Szymański
!!!END: 2021-09-10
